(G-CODE GENERATED BY FLATCAM v8.99 - www.flatcam.org - Version Date: 2019/12/15)

(Name: PCB business card-F_Cu.gbr_iso_cnc)
(Type: G-code from Geometry)
(Units: MM)

(Created on Tuesday, 18 November 2025 at 19:20)

(TOOL DIAMETER: 0.1536 mm)
(Feedrate: 120.0 mm/min)
(Feedrate_Z: 60.0 mm/min)
(Feedrate rapids 1500.0 mm/min)

(Z_Cut: -0.1 mm)
(Z_Move: 2.0 mm)
(Z Toolchange: 15.0 mm)
(X,Y Toolchange: 0.0000, 0.0000 mm)
(Z Start: None mm)
(Z End: 5.0 mm)
(Steps per circle: 64)
(Preprocessor Geometry: default)

(X range:    2.0736 ...   94.9264  mm)
(Y range:    2.0736 ...   55.9264  mm)

(Spindle Speed: None RPM)
G21
G90
G94




G01 F120.00
G00 Z2.0000

M03
G00 X2.1291 Y4.1086
G01 F60.00
G01 Z-0.1000
G01 F120.00
G01 X2.1403 Y4.0571
G01 X2.2174 Y3.7819
G01 X2.3262 Y3.5178
G01 X2.3402 Y3.4893
G01 X2.4384 Y3.3116
G01 X2.5511 Y3.1426
G01 X2.6776 Y2.9837
G01 X2.7233 Y2.9309
G01 X2.8835 Y2.7630
G01 X3.0590 Y2.6111
G01 X3.2482 Y2.4768
G01 X3.4474 Y2.3621
G01 X3.6565 Y2.2667
G01 X3.8737 Y2.1916
G01 X3.9408 Y2.1719
G01 X4.1652 Y2.1175
G01 X4.3938 Y2.0846
G01 X4.6245 Y2.0736
G01 X92.3755 Y2.0736
G01 X92.6349 Y2.0875
G01 X92.8914 Y2.1291
G01 X92.9429 Y2.1403
G01 X93.2181 Y2.2174
G01 X93.4823 Y2.3263
G01 X93.5106 Y2.3402
G01 X93.6884 Y2.4384
G01 X93.8574 Y2.5511
G01 X94.0163 Y2.6776
G01 X94.0691 Y2.7233
G01 X94.2370 Y2.8835
G01 X94.3888 Y3.0590
G01 X94.5232 Y3.2482
G01 X94.6379 Y3.4474
G01 X94.7333 Y3.6565
G01 X94.8084 Y3.8737
G01 X94.8281 Y3.9408
G01 X94.8825 Y4.1652
G01 X94.9154 Y4.3938
G01 X94.9264 Y4.6245
G01 X94.9264 Y53.3755
G01 X94.9125 Y53.6349
G01 X94.8709 Y53.8914
G01 X94.8597 Y53.9429
G01 X94.7826 Y54.2181
G01 X94.6738 Y54.4822
G01 X94.6598 Y54.5107
G01 X94.5616 Y54.6884
G01 X94.4489 Y54.8574
G01 X94.3224 Y55.0163
G01 X94.2767 Y55.0691
G01 X94.1165 Y55.2370
G01 X93.9410 Y55.3889
G01 X93.7518 Y55.5232
G01 X93.5526 Y55.6379
G01 X93.3435 Y55.7333
G01 X93.1263 Y55.8084
G01 X93.0592 Y55.8281
G01 X92.8348 Y55.8825
G01 X92.6062 Y55.9154
G01 X92.3755 Y55.9264
G01 X4.6245 Y55.9264
G01 X4.3651 Y55.9125
G01 X4.1086 Y55.8709
G01 X4.0571 Y55.8597
G01 X3.7819 Y55.7826
G01 X3.5177 Y55.6737
G01 X3.4894 Y55.6598
G01 X3.3116 Y55.5616
G01 X3.1426 Y55.4489
G01 X2.9837 Y55.3224
G01 X2.9309 Y55.2767
G01 X2.7630 Y55.1165
G01 X2.6112 Y54.9410
G01 X2.4768 Y54.7518
G01 X2.3621 Y54.5526
G01 X2.2667 Y54.3435
G01 X2.1916 Y54.1263
G01 X2.1719 Y54.0592
G01 X2.1175 Y53.8348
G01 X2.0846 Y53.6062
G01 X2.0736 Y53.3755
G01 X2.0736 Y4.6245
G01 X2.0875 Y4.3651
G01 X2.1291 Y4.1086
G00 Z2.0000
G00 X2.2642 Y4.1380
G01 F60.00
G01 Z-0.1000
G01 F120.00
G01 X2.2754 Y4.0865
G01 X2.3481 Y3.8270
G01 X2.4507 Y3.5779
G01 X2.4639 Y3.5511
G01 X2.5565 Y3.3834
G01 X2.6628 Y3.2241
G01 X2.7821 Y3.0742
G01 X2.8278 Y3.0214
G01 X2.9789 Y2.8631
G01 X3.1444 Y2.7199
G01 X3.3228 Y2.5932
G01 X3.5106 Y2.4850
G01 X3.7078 Y2.3951
G01 X3.9127 Y2.3243
G01 X3.9797 Y2.3046
G01 X4.1914 Y2.2532
G01 X4.4069 Y2.2222
G01 X4.6245 Y2.2119
G01 X92.3755 Y2.2119
G01 X92.6202 Y2.2250
G01 X92.8620 Y2.2642
G01 X92.9135 Y2.2754
G01 X93.1730 Y2.3481
G01 X93.4222 Y2.4508
G01 X93.4489 Y2.4639
G01 X93.6166 Y2.5565
G01 X93.7759 Y2.6628
G01 X93.9258 Y2.7821
G01 X93.9786 Y2.8278
G01 X94.1369 Y2.9789
G01 X94.2801 Y3.1444
G01 X94.4068 Y3.3228
G01 X94.5150 Y3.5106
G01 X94.6049 Y3.7078
G01 X94.6757 Y3.9127
G01 X94.6954 Y3.9797
G01 X94.7468 Y4.1914
G01 X94.7778 Y4.4069
G01 X94.7881 Y4.6245
G01 X94.7881 Y53.3755
G01 X94.7750 Y53.6202
G01 X94.7358 Y53.8620
G01 X94.7246 Y53.9135
G01 X94.6519 Y54.1730
G01 X94.5493 Y54.4221
G01 X94.5361 Y54.4489
G01 X94.4435 Y54.6166
G01 X94.3372 Y54.7759
G01 X94.2179 Y54.9258
G01 X94.1722 Y54.9786
G01 X94.0211 Y55.1369
G01 X93.8556 Y55.2801
G01 X93.6772 Y55.4068
G01 X93.4894 Y55.5150
G01 X93.2922 Y55.6049
G01 X93.0873 Y55.6757
G01 X93.0203 Y55.6954
G01 X92.8086 Y55.7468
G01 X92.5931 Y55.7778
G01 X92.3755 Y55.7881
G01 X4.6245 Y55.7881
G01 X4.3798 Y55.7750
G01 X4.1380 Y55.7358
G01 X4.0865 Y55.7246
G01 X3.8270 Y55.6519
G01 X3.5778 Y55.5492
G01 X3.5511 Y55.5361
G01 X3.3834 Y55.4435
G01 X3.2241 Y55.3372
G01 X3.0742 Y55.2179
G01 X3.0214 Y55.1722
G01 X2.8631 Y55.0211
G01 X2.7199 Y54.8556
G01 X2.5932 Y54.6772
G01 X2.4850 Y54.4894
G01 X2.3951 Y54.2922
G01 X2.3243 Y54.0873
G01 X2.3046 Y54.0203
G01 X2.2532 Y53.8086
G01 X2.2222 Y53.5931
G01 X2.2119 Y53.3755
G01 X2.2119 Y4.6245
G01 X2.2250 Y4.3798
G01 X2.2642 Y4.1380
G00 Z2.0000
G00 X2.3992 Y4.1674
G01 F60.00
G01 Z-0.1000
G01 F120.00
G01 X2.4105 Y4.1159
G01 X2.4787 Y3.8721
G01 X2.5752 Y3.6380
G01 X2.5876 Y3.6128
G01 X2.6746 Y3.4553
G01 X2.7745 Y3.3056
G01 X2.8865 Y3.1648
G01 X2.9323 Y3.1120
G01 X3.0742 Y2.9632
G01 X3.2297 Y2.8286
G01 X3.3974 Y2.7095
G01 X3.5738 Y2.6079
G01 X3.7591 Y2.5235
G01 X3.9516 Y2.4569
G01 X4.0186 Y2.4372
G01 X4.2175 Y2.3890
G01 X4.4201 Y2.3598
G01 X4.6245 Y2.3501
G01 X92.3755 Y2.3501
G01 X92.6054 Y2.3624
G01 X92.8326 Y2.3992
G01 X92.8841 Y2.4105
G01 X93.1280 Y2.4788
G01 X93.3621 Y2.5752
G01 X93.3872 Y2.5876
G01 X93.5447 Y2.6746
G01 X93.6944 Y2.7745
G01 X93.8352 Y2.8865
G01 X93.8880 Y2.9323
G01 X94.0368 Y3.0742
G01 X94.1714 Y3.2297
G01 X94.2904 Y3.3973
G01 X94.3921 Y3.5738
G01 X94.4765 Y3.7591
G01 X94.5431 Y3.9516
G01 X94.5628 Y4.0186
G01 X94.6110 Y4.2175
G01 X94.6402 Y4.4201
G01 X94.6499 Y4.6245
G01 X94.6499 Y53.3755
G01 X94.6376 Y53.6054
G01 X94.6008 Y53.8326
G01 X94.5895 Y53.8841
G01 X94.5213 Y54.1279
G01 X94.4248 Y54.3620
G01 X94.4124 Y54.3872
G01 X94.3254 Y54.5447
G01 X94.2255 Y54.6944
G01 X94.1135 Y54.8352
G01 X94.0677 Y54.8880
G01 X93.9258 Y55.0368
G01 X93.7703 Y55.1714
G01 X93.6026 Y55.2905
G01 X93.4262 Y55.3921
G01 X93.2409 Y55.4765
G01 X93.0484 Y55.5431
G01 X92.9814 Y55.5628
G01 X92.7825 Y55.6110
G01 X92.5799 Y55.6402
G01 X92.3755 Y55.6499
G01 X4.6245 Y55.6499
G01 X4.3946 Y55.6376
G01 X4.1674 Y55.6008
G01 X4.1159 Y55.5895
G01 X3.8720 Y55.5212
G01 X3.6379 Y55.4248
G01 X3.6128 Y55.4124
G01 X3.4553 Y55.3254
G01 X3.3056 Y55.2255
G01 X3.1648 Y55.1135
G01 X3.1120 Y55.0677
G01 X2.9632 Y54.9258
G01 X2.8286 Y54.7703
G01 X2.7096 Y54.6027
G01 X2.6079 Y54.4262
G01 X2.5235 Y54.2409
G01 X2.4569 Y54.0484
G01 X2.4372 Y53.9814
G01 X2.3890 Y53.7825
G01 X2.3598 Y53.5799
G01 X2.3501 Y53.3755
G01 X2.3501 Y4.6245
G01 X2.3624 Y4.3946
G01 X2.3992 Y4.1674
G00 Z2.0000
G00 X2.5343 Y4.1968
G01 F60.00
G01 Z-0.1000
G01 F120.00
G01 X2.5455 Y4.1453
G01 X2.6094 Y3.9171
G01 X2.6997 Y3.6981
G01 X2.7113 Y3.6745
G01 X2.7927 Y3.5271
G01 X2.8862 Y3.3871
G01 X2.9910 Y3.2553
G01 X3.0368 Y3.2025
G01 X3.1696 Y3.0633
G01 X3.3151 Y2.9374
G01 X3.4719 Y2.8259
G01 X3.6371 Y2.7309
G01 X3.8105 Y2.6518
G01 X3.9906 Y2.5895
G01 X4.0576 Y2.5699
G01 X4.2437 Y2.5247
G01 X4.4332 Y2.4975
G01 X4.6245 Y2.4883
G01 X92.3755 Y2.4883
G01 X92.5906 Y2.4999
G01 X92.8032 Y2.5343
G01 X92.8547 Y2.5455
G01 X93.0829 Y2.6094
G01 X93.3020 Y2.6997
G01 X93.3255 Y2.7113
G01 X93.4729 Y2.7927
G01 X93.6129 Y2.8862
G01 X93.7447 Y2.9910
G01 X93.7975 Y3.0368
G01 X93.9367 Y3.1696
G01 X94.0626 Y3.3151
G01 X94.1740 Y3.4719
G01 X94.2691 Y3.6371
G01 X94.3482 Y3.8105
G01 X94.4105 Y3.9906
G01 X94.4301 Y4.0576
G01 X94.4753 Y4.2437
G01 X94.5025 Y4.4332
G01 X94.5117 Y4.6245
G01 X94.5117 Y53.3755
G01 X94.5001 Y53.5906
G01 X94.4657 Y53.8032
G01 X94.4545 Y53.8547
G01 X94.3906 Y54.0829
G01 X94.3003 Y54.3019
G01 X94.2887 Y54.3255
G01 X94.2073 Y54.4729
G01 X94.1138 Y54.6129
G01 X94.0090 Y54.7447
G01 X93.9632 Y54.7975
G01 X93.8304 Y54.9367
G01 X93.6849 Y55.0626
G01 X93.5281 Y55.1741
G01 X93.3629 Y55.2691
G01 X93.1895 Y55.3482
G01 X93.0094 Y55.4105
G01 X92.9424 Y55.4301
G01 X92.7563 Y55.4753
G01 X92.5668 Y55.5025
G01 X92.3755 Y55.5117
G01 X4.6245 Y55.5117
G01 X4.4094 Y55.5001
G01 X4.1968 Y55.4657
G01 X4.1453 Y55.4545
G01 X3.9171 Y55.3906
G01 X3.6980 Y55.3003
G01 X3.6745 Y55.2887
G01 X3.5271 Y55.2073
G01 X3.3871 Y55.1138
G01 X3.2553 Y55.0090
G01 X3.2025 Y54.9632
G01 X3.0633 Y54.8304
G01 X2.9374 Y54.6849
G01 X2.8260 Y54.5281
G01 X2.7309 Y54.3629
G01 X2.6518 Y54.1895
G01 X2.5895 Y54.0094
G01 X2.5699 Y53.9424
G01 X2.5247 Y53.7563
G01 X2.4975 Y53.5668
G01 X2.4883 Y53.3755
G01 X2.4883 Y4.6245
G01 X2.4999 Y4.4094
G01 X2.5343 Y4.1968
G00 Z2.0000
G00 X2.6694 Y4.2262
G01 F60.00
G01 Z-0.1000
G01 F120.00
G01 X2.6806 Y4.1746
G01 X2.7401 Y3.9622
G01 X2.8242 Y3.7582
G01 X2.8350 Y3.7362
G01 X2.9108 Y3.5990
G01 X2.9978 Y3.4685
G01 X3.0955 Y3.3458
G01 X3.1412 Y3.2930
G01 X3.2649 Y3.1634
G01 X3.4004 Y3.0461
G01 X3.5465 Y2.9423
G01 X3.7003 Y2.8538
G01 X3.8618 Y2.7802
G01 X4.0295 Y2.7222
G01 X4.0965 Y2.7025
G01 X4.2698 Y2.6604
G01 X4.4464 Y2.6351
G01 X4.6245 Y2.6266
G01 X92.3755 Y2.6266
G01 X92.5758 Y2.6373
G01 X92.7738 Y2.6694
G01 X92.8254 Y2.6806
G01 X93.0378 Y2.7401
G01 X93.2419 Y2.8242
G01 X93.2637 Y2.8350
G01 X93.4010 Y2.9108
G01 X93.5315 Y2.9978
G01 X93.6542 Y3.0955
G01 X93.7070 Y3.1412
G01 X93.8366 Y3.2649
G01 X93.9539 Y3.4004
G01 X94.0576 Y3.5465
G01 X94.1462 Y3.7003
G01 X94.2198 Y3.8618
G01 X94.2778 Y4.0295
G01 X94.2975 Y4.0965
G01 X94.3396 Y4.2698
G01 X94.3649 Y4.4464
G01 X94.3734 Y4.6245
G01 X94.3734 Y53.3755
G01 X94.3627 Y53.5758
G01 X94.3306 Y53.7738
G01 X94.3194 Y53.8254
G01 X94.2599 Y54.0378
G01 X94.1758 Y54.2418
G01 X94.1650 Y54.2638
G01 X94.0892 Y54.4010
G01 X94.0022 Y54.5315
G01 X93.9045 Y54.6542
G01 X93.8588 Y54.7070
G01 X93.7351 Y54.8366
G01 X93.5996 Y54.9539
G01 X93.4535 Y55.0577
G01 X93.2997 Y55.1462
G01 X93.1382 Y55.2198
G01 X92.9705 Y55.2778
G01 X92.9035 Y55.2975
G01 X92.7302 Y55.3396
G01 X92.5536 Y55.3649
G01 X92.3755 Y55.3734
G01 X4.6245 Y55.3734
G01 X4.4242 Y55.3627
G01 X4.2262 Y55.3306
G01 X4.1746 Y55.3194
G01 X3.9622 Y55.2599
G01 X3.7581 Y55.1758
G01 X3.7363 Y55.1650
G01 X3.5990 Y55.0892
G01 X3.4685 Y55.0022
G01 X3.3458 Y54.9045
G01 X3.2930 Y54.8588
G01 X3.1634 Y54.7351
G01 X3.0461 Y54.5996
G01 X2.9424 Y54.4535
G01 X2.8538 Y54.2997
G01 X2.7802 Y54.1382
G01 X2.7222 Y53.9705
G01 X2.7025 Y53.9035
G01 X2.6604 Y53.7302
G01 X2.6351 Y53.5536
G01 X2.6266 Y53.3755
G01 X2.6266 Y4.6245
G01 X2.6373 Y4.4242
G01 X2.6694 Y4.2262
G00 Z2.0000
G00 X2.8045 Y4.2555
G01 F60.00
G01 Z-0.1000
G01 F120.00
G01 X2.8157 Y4.2040
G01 X2.8708 Y4.0072
G01 X2.9487 Y3.8183
G01 X2.9587 Y3.7980
G01 X3.0289 Y3.6708
G01 X3.1095 Y3.5500
G01 X3.2000 Y3.4364
G01 X3.2457 Y3.3836
G01 X3.3603 Y3.2635
G01 X3.4858 Y3.1549
G01 X3.6211 Y3.0587
G01 X3.7635 Y2.9767
G01 X3.9131 Y2.9085
G01 X4.0685 Y2.8548
G01 X4.1355 Y2.8351
G01 X4.2960 Y2.7962
G01 X4.4595 Y2.7727
G01 X4.6245 Y2.7648
G01 X92.3755 Y2.7648
G01 X92.5610 Y2.7748
G01 X92.7445 Y2.8045
G01 X92.7960 Y2.8157
G01 X92.9928 Y2.8708
G01 X93.1817 Y2.9487
G01 X93.2020 Y2.9587
G01 X93.3291 Y3.0289
G01 X93.4500 Y3.1095
G01 X93.5636 Y3.2000
G01 X93.6164 Y3.2457
G01 X93.7365 Y3.3603
G01 X93.8451 Y3.4858
G01 X93.9412 Y3.6211
G01 X94.0233 Y3.7635
G01 X94.0915 Y3.9131
G01 X94.1452 Y4.0685
G01 X94.1649 Y4.1355
G01 X94.2038 Y4.2960
G01 X94.2273 Y4.4595
G01 X94.2352 Y4.6245
G01 X94.2352 Y53.3755
G01 X94.2252 Y53.5610
G01 X94.1955 Y53.7445
G01 X94.1843 Y53.7960
G01 X94.1292 Y53.9928
G01 X94.0513 Y54.1817
G01 X94.0413 Y54.2020
G01 X93.9711 Y54.3292
G01 X93.8905 Y54.4500
G01 X93.8000 Y54.5636
G01 X93.7543 Y54.6164
G01 X93.6397 Y54.7365
G01 X93.5142 Y54.8451
G01 X93.3789 Y54.9413
G01 X93.2365 Y55.0233
G01 X93.0869 Y55.0915
G01 X92.9315 Y55.1452
G01 X92.8645 Y55.1649
G01 X92.7040 Y55.2038
G01 X92.5405 Y55.2273
G01 X92.3755 Y55.2352
G01 X4.6245 Y55.2352
G01 X4.4390 Y55.2252
G01 X4.2555 Y55.1955
G01 X4.2040 Y55.1843
G01 X4.0072 Y55.1292
G01 X3.8183 Y55.0513
G01 X3.7980 Y55.0413
G01 X3.6709 Y54.9711
G01 X3.5500 Y54.8905
G01 X3.4364 Y54.8000
G01 X3.3836 Y54.7543
G01 X3.2635 Y54.6397
G01 X3.1549 Y54.5142
G01 X3.0588 Y54.3789
G01 X2.9767 Y54.2365
G01 X2.9085 Y54.0869
G01 X2.8548 Y53.9315
G01 X2.8351 Y53.8645
G01 X2.7962 Y53.7040
G01 X2.7727 Y53.5405
G01 X2.7648 Y53.3755
G01 X2.7648 Y4.6245
G01 X2.7748 Y4.4390
G01 X2.8045 Y4.2555
G00 Z2.0000
G00 X2.9396 Y4.2849
G01 F60.00
G01 Z-0.1000
G01 F120.00
G01 X2.9508 Y4.2334
G01 X3.0015 Y4.0523
G01 X3.0732 Y3.8784
G01 X3.0824 Y3.8597
G01 X3.1470 Y3.7427
G01 X3.2212 Y3.6315
G01 X3.3044 Y3.5269
G01 X3.3502 Y3.4741
G01 X3.4556 Y3.3636
G01 X3.5711 Y3.2636
G01 X3.6957 Y3.1751
G01 X3.8268 Y3.0997
G01 X3.9644 Y3.0369
G01 X4.1074 Y2.9875
G01 X4.1744 Y2.9678
G01 X4.3222 Y2.9319
G01 X4.4726 Y2.9103
G01 X4.6245 Y2.9031
G01 X92.3755 Y2.9031
G01 X92.5463 Y2.9122
G01 X92.7151 Y2.9396
G01 X92.7666 Y2.9508
G01 X92.9477 Y3.0015
G01 X93.1216 Y3.0732
G01 X93.1403 Y3.0823
G01 X93.2573 Y3.1470
G01 X93.3685 Y3.2212
G01 X93.4731 Y3.3044
G01 X93.5259 Y3.3502
G01 X93.6364 Y3.4556
G01 X93.7364 Y3.5711
G01 X93.8248 Y3.6957
G01 X93.9003 Y3.8268
G01 X93.9631 Y3.9644
G01 X94.0125 Y4.1074
G01 X94.0322 Y4.1744
G01 X94.0681 Y4.3222
G01 X94.0897 Y4.4726
G01 X94.0969 Y4.6245
G01 X94.0969 Y53.3755
G01 X94.0878 Y53.5463
G01 X94.0604 Y53.7151
G01 X94.0492 Y53.7666
G01 X93.9985 Y53.9477
G01 X93.9268 Y54.1216
G01 X93.9176 Y54.1403
G01 X93.8530 Y54.2573
G01 X93.7788 Y54.3685
G01 X93.6956 Y54.4731
G01 X93.6498 Y54.5259
G01 X93.5444 Y54.6364
G01 X93.4289 Y54.7364
G01 X93.3043 Y54.8249
G01 X93.1732 Y54.9003
G01 X93.0356 Y54.9631
G01 X92.8926 Y55.0125
G01 X92.8256 Y55.0322
G01 X92.6778 Y55.0681
G01 X92.5274 Y55.0897
G01 X92.3755 Y55.0969
G01 X4.6245 Y55.0969
G01 X4.4537 Y55.0878
G01 X4.2849 Y55.0604
G01 X4.2334 Y55.0492
G01 X4.0523 Y54.9985
G01 X3.8784 Y54.9268
G01 X3.8597 Y54.9177
G01 X3.7427 Y54.8530
G01 X3.6315 Y54.7788
G01 X3.5269 Y54.6956
G01 X3.4741 Y54.6498
G01 X3.3636 Y54.5444
G01 X3.2636 Y54.4289
G01 X3.1752 Y54.3043
G01 X3.0997 Y54.1732
G01 X3.0369 Y54.0356
G01 X2.9875 Y53.8926
G01 X2.9678 Y53.8256
G01 X2.9319 Y53.6778
G01 X2.9103 Y53.5274
G01 X2.9031 Y53.3755
G01 X2.9031 Y4.6245
G01 X2.9122 Y4.4537
G01 X2.9396 Y4.2849
G00 Z2.0000
G00 X3.0746 Y4.3143
G01 F60.00
G01 Z-0.1000
G01 F120.00
G01 X3.0859 Y4.2628
G01 X3.1322 Y4.0974
G01 X3.1977 Y3.9385
G01 X3.2061 Y3.9214
G01 X3.2651 Y3.8145
G01 X3.3329 Y3.7130
G01 X3.4089 Y3.6174
G01 X3.4547 Y3.5646
G01 X3.5510 Y3.4636
G01 X3.6565 Y3.3723
G01 X3.7703 Y3.2915
G01 X3.8900 Y3.2226
G01 X4.0157 Y3.1653
G01 X4.1463 Y3.1201
G01 X4.2134 Y3.1004
G01 X4.3483 Y3.0677
G01 X4.4858 Y3.0479
G01 X4.6245 Y3.0413
G01 X92.3755 Y3.0413
G01 X92.5315 Y3.0497
G01 X92.6857 Y3.0746
G01 X92.7372 Y3.0859
G01 X92.9027 Y3.1322
G01 X93.0615 Y3.1977
G01 X93.0786 Y3.2060
G01 X93.1854 Y3.2651
G01 X93.2870 Y3.3329
G01 X93.3826 Y3.4089
G01 X93.4354 Y3.4547
G01 X93.5363 Y3.5510
G01 X93.6276 Y3.6565
G01 X93.7084 Y3.7702
G01 X93.7774 Y3.8900
G01 X93.8347 Y4.0157
G01 X93.8799 Y4.1463
G01 X93.8996 Y4.2134
G01 X93.9323 Y4.3483
G01 X93.9521 Y4.4858
G01 X93.9587 Y4.6245
G01 X93.9587 Y53.3755
G01 X93.9503 Y53.5315
G01 X93.9254 Y53.6857
G01 X93.9141 Y53.7372
G01 X93.8678 Y53.9026
G01 X93.8023 Y54.0615
G01 X93.7939 Y54.0786
G01 X93.7349 Y54.1855
G01 X93.6671 Y54.2870
G01 X93.5911 Y54.3826
G01 X93.5453 Y54.4354
G01 X93.4490 Y54.5364
G01 X93.3435 Y54.6277
G01 X93.2297 Y54.7085
G01 X93.1100 Y54.7774
G01 X92.9843 Y54.8347
G01 X92.8537 Y54.8799
G01 X92.7866 Y54.8996
G01 X92.6517 Y54.9323
G01 X92.5142 Y54.9521
G01 X92.3755 Y54.9587
G01 X4.6245 Y54.9587
G01 X4.4685 Y54.9503
G01 X4.3143 Y54.9254
G01 X4.2628 Y54.9141
G01 X4.0973 Y54.8678
G01 X3.9385 Y54.8023
G01 X3.9214 Y54.7940
G01 X3.8146 Y54.7349
G01 X3.7130 Y54.6671
G01 X3.6174 Y54.5911
G01 X3.5646 Y54.5453
G01 X3.4637 Y54.4490
G01 X3.3724 Y54.3435
G01 X3.2916 Y54.2298
G01 X3.2226 Y54.1100
G01 X3.1653 Y53.9843
G01 X3.1201 Y53.8537
G01 X3.1004 Y53.7866
G01 X3.0677 Y53.6517
G01 X3.0479 Y53.5142
G01 X3.0413 Y53.3755
G01 X3.0413 Y4.6245
G01 X3.0497 Y4.4685
G01 X3.0746 Y4.3143
G00 Z2.0000
G00 X3.2097 Y4.3437
G01 F60.00
G01 Z-0.1000
G01 F120.00
G01 X3.2209 Y4.2922
G01 X3.2629 Y4.1424
G01 X3.3222 Y3.9986
G01 X3.3297 Y3.9832
G01 X3.3832 Y3.8864
G01 X3.4446 Y3.7944
G01 X3.5134 Y3.7079
G01 X3.5591 Y3.6551
G01 X3.6463 Y3.5637
G01 X3.7419 Y3.4811
G01 X3.8448 Y3.4079
G01 X3.9532 Y3.3455
G01 X4.0671 Y3.2936
G01 X4.1853 Y3.2527
G01 X4.2523 Y3.2331
G01 X4.3745 Y3.2034
G01 X4.4989 Y3.1855
G01 X4.6245 Y3.1795
G01 X92.3755 Y3.1795
G01 X92.5167 Y3.1871
G01 X92.6563 Y3.2097
G01 X92.7078 Y3.2209
G01 X92.8576 Y3.2629
G01 X93.0014 Y3.3222
G01 X93.0168 Y3.3297
G01 X93.1136 Y3.3832
G01 X93.2056 Y3.4446
G01 X93.2921 Y3.5134
G01 X93.3449 Y3.5591
G01 X93.4363 Y3.6463
G01 X93.5189 Y3.7418
G01 X93.5921 Y3.8448
G01 X93.6545 Y3.9532
G01 X93.7064 Y4.0671
G01 X93.7473 Y4.1853
G01 X93.7669 Y4.2523
G01 X93.7966 Y4.3745
G01 X93.8145 Y4.4989
G01 X93.8205 Y4.6245
G01 X93.8205 Y53.3755
G01 X93.8129 Y53.5167
G01 X93.7903 Y53.6563
G01 X93.7791 Y53.7078
G01 X93.7371 Y53.8576
G01 X93.6778 Y54.0014
G01 X93.6703 Y54.0168
G01 X93.6168 Y54.1136
G01 X93.5554 Y54.2056
G01 X93.4866 Y54.2921
G01 X93.4409 Y54.3449
G01 X93.3537 Y54.4363
G01 X93.2581 Y54.5189
G01 X93.1552 Y54.5921
G01 X93.0468 Y54.6545
G01 X92.9329 Y54.7064
G01 X92.8147 Y54.7473
G01 X92.7477 Y54.7669
G01 X92.6255 Y54.7966
G01 X92.5011 Y54.8145
G01 X92.3755 Y54.8205
G01 X4.6245 Y54.8205
G01 X4.4833 Y54.8129
G01 X4.3437 Y54.7903
G01 X4.2922 Y54.7791
G01 X4.1424 Y54.7371
G01 X3.9986 Y54.6778
G01 X3.9832 Y54.6703
G01 X3.8864 Y54.6168
G01 X3.7944 Y54.5554
G01 X3.7079 Y54.4866
G01 X3.6551 Y54.4409
G01 X3.5637 Y54.3537
G01 X3.4811 Y54.2582
G01 X3.4079 Y54.1552
G01 X3.3455 Y54.0468
G01 X3.2936 Y53.9329
G01 X3.2527 Y53.8147
G01 X3.2331 Y53.7477
G01 X3.2034 Y53.6255
G01 X3.1855 Y53.5011
G01 X3.1795 Y53.3755
G01 X3.1795 Y4.6245
G01 X3.1871 Y4.4833
G01 X3.2097 Y4.3437
G00 Z2.0000
G00 X3.3448 Y4.3731
G01 F60.00
G01 Z-0.1000
G01 F120.00
G01 X3.3560 Y4.3216
G01 X3.3936 Y4.1875
G01 X3.4466 Y4.0587
G01 X3.4534 Y4.0449
G01 X3.5013 Y3.9582
G01 X3.5562 Y3.8759
G01 X3.6179 Y3.7985
G01 X3.6636 Y3.7457
G01 X3.7417 Y3.6638
G01 X3.8272 Y3.5898
G01 X3.9194 Y3.5243
G01 X4.0165 Y3.4684
G01 X4.1184 Y3.4220
G01 X4.2242 Y3.3854
G01 X4.2913 Y3.3657
G01 X4.4007 Y3.3392
G01 X4.5121 Y3.3231
G01 X4.6245 Y3.3178
G01 X92.3755 Y3.3178
G01 X92.5019 Y3.3246
G01 X92.6269 Y3.3448
G01 X92.6784 Y3.3560
G01 X92.8125 Y3.3936
G01 X92.9413 Y3.4467
G01 X92.9551 Y3.4534
G01 X93.0417 Y3.5013
G01 X93.1241 Y3.5562
G01 X93.2015 Y3.6179
G01 X93.2543 Y3.6636
G01 X93.3362 Y3.7417
G01 X93.4102 Y3.8272
G01 X93.4757 Y3.9194
G01 X93.5316 Y4.0165
G01 X93.5780 Y4.1184
G01 X93.6146 Y4.2242
G01 X93.6343 Y4.2913
G01 X93.6608 Y4.4007
G01 X93.6769 Y4.5121
G01 X93.6822 Y4.6245
G01 X93.6822 Y53.3755
G01 X93.6754 Y53.5019
G01 X93.6552 Y53.6269
G01 X93.6440 Y53.6784
G01 X93.6064 Y53.8125
G01 X93.5534 Y53.9413
G01 X93.5466 Y53.9551
G01 X93.4987 Y54.0418
G01 X93.4438 Y54.1241
G01 X93.3821 Y54.2015
G01 X93.3364 Y54.2543
G01 X93.2583 Y54.3362
G01 X93.1728 Y54.4102
G01 X93.0806 Y54.4757
G01 X92.9835 Y54.5316
G01 X92.8816 Y54.5780
G01 X92.7758 Y54.6146
G01 X92.7087 Y54.6343
G01 X92.5993 Y54.6608
G01 X92.4879 Y54.6769
G01 X92.3755 Y54.6822
G01 X4.6245 Y54.6822
G01 X4.4981 Y54.6754
G01 X4.3731 Y54.6552
G01 X4.3216 Y54.6440
G01 X4.1875 Y54.6064
G01 X4.0587 Y54.5533
G01 X4.0449 Y54.5466
G01 X3.9583 Y54.4987
G01 X3.8759 Y54.4438
G01 X3.7985 Y54.3821
G01 X3.7457 Y54.3364
G01 X3.6638 Y54.2583
G01 X3.5898 Y54.1728
G01 X3.5243 Y54.0806
G01 X3.4684 Y53.9835
G01 X3.4220 Y53.8816
G01 X3.3854 Y53.7758
G01 X3.3657 Y53.7087
G01 X3.3392 Y53.5993
G01 X3.3231 Y53.4879
G01 X3.3178 Y53.3755
G01 X3.3178 Y4.6245
G01 X3.3246 Y4.4981
G01 X3.3448 Y4.3731
G00 Z2.0000
G00 X3.4799 Y4.4025
G01 F60.00
G01 Z-0.1000
G01 F120.00
G01 X3.4911 Y4.3510
G01 X3.5243 Y4.2325
G01 X3.5711 Y4.1188
G01 X3.5771 Y4.1066
G01 X3.6194 Y4.0301
G01 X3.6679 Y3.9574
G01 X3.7223 Y3.8890
G01 X3.7681 Y3.8362
G01 X3.8370 Y3.7639
G01 X3.9126 Y3.6986
G01 X3.9940 Y3.6407
G01 X4.0797 Y3.5914
G01 X4.1697 Y3.5503
G01 X4.2632 Y3.5180
G01 X4.3302 Y3.4983
G01 X4.4268 Y3.4749
G01 X4.5252 Y3.4607
G01 X4.6245 Y3.4560
G01 X92.3755 Y3.4560
G01 X92.4872 Y3.4620
G01 X92.5975 Y3.4799
G01 X92.6490 Y3.4911
G01 X92.7675 Y3.5243
G01 X92.8812 Y3.5711
G01 X92.8934 Y3.5771
G01 X92.9699 Y3.6194
G01 X93.0426 Y3.6679
G01 X93.1110 Y3.7223
G01 X93.1638 Y3.7681
G01 X93.2361 Y3.8370
G01 X93.3014 Y3.9126
G01 X93.3593 Y3.9940
G01 X93.4086 Y4.0797
G01 X93.4497 Y4.1697
G01 X93.4820 Y4.2632
G01 X93.5017 Y4.3302
G01 X93.5251 Y4.4268
G01 X93.5393 Y4.5252
G01 X93.5440 Y4.6245
G01 X93.5440 Y53.3755
G01 X93.5380 Y53.4872
G01 X93.5201 Y53.5975
G01 X93.5089 Y53.6490
G01 X93.4757 Y53.7675
G01 X93.4289 Y53.8812
G01 X93.4229 Y53.8934
G01 X93.3806 Y53.9699
G01 X93.3321 Y54.0426
G01 X93.2777 Y54.1110
G01 X93.2319 Y54.1638
G01 X93.1630 Y54.2361
G01 X93.0874 Y54.3014
G01 X93.0060 Y54.3593
G01 X92.9203 Y54.4086
G01 X92.8303 Y54.4497
G01 X92.7368 Y54.4820
G01 X92.6698 Y54.5017
G01 X92.5732 Y54.5251
G01 X92.4748 Y54.5393
G01 X92.3755 Y54.5440
G01 X4.6245 Y54.5440
G01 X4.5128 Y54.5380
G01 X4.4025 Y54.5201
G01 X4.3510 Y54.5089
G01 X4.2325 Y54.4757
G01 X4.1188 Y54.4289
G01 X4.1066 Y54.4229
G01 X4.0301 Y54.3806
G01 X3.9574 Y54.3321
G01 X3.8890 Y54.2777
G01 X3.8362 Y54.2319
G01 X3.7639 Y54.1630
G01 X3.6986 Y54.0874
G01 X3.6407 Y54.0060
G01 X3.5914 Y53.9203
G01 X3.5503 Y53.8303
G01 X3.5180 Y53.7368
G01 X3.4983 Y53.6698
G01 X3.4749 Y53.5732
G01 X3.4607 Y53.4748
G01 X3.4560 Y53.3755
G01 X3.4560 Y4.6245
G01 X3.4620 Y4.5128
G01 X3.4799 Y4.4025
G00 Z2.0000
G00 X3.6150 Y4.4319
G01 F60.00
G01 Z-0.1000
G01 F120.00
G01 X3.6262 Y4.3803
G01 X3.6550 Y4.2776
G01 X3.6956 Y4.1789
G01 X3.7008 Y4.1683
G01 X3.7375 Y4.1020
G01 X3.7796 Y4.0389
G01 X3.8268 Y3.9795
G01 X3.8726 Y3.9267
G01 X3.9324 Y3.8640
G01 X3.9979 Y3.8073
G01 X4.0686 Y3.7571
G01 X4.1429 Y3.7143
G01 X4.2210 Y3.6787
G01 X4.3021 Y3.6507
G01 X4.3692 Y3.6310
G01 X4.4530 Y3.6106
G01 X4.5384 Y3.5984
G01 X4.6245 Y3.5943
G01 X92.3755 Y3.5943
G01 X92.4724 Y3.5995
G01 X92.5681 Y3.6150
G01 X92.6197 Y3.6262
G01 X92.7224 Y3.6550
G01 X92.8211 Y3.6956
G01 X92.8317 Y3.7008
G01 X92.8980 Y3.7375
G01 X92.9611 Y3.7796
G01 X93.0205 Y3.8268
G01 X93.0733 Y3.8726
G01 X93.1360 Y3.9324
G01 X93.1927 Y3.9979
G01 X93.2429 Y4.0686
G01 X93.2857 Y4.1429
G01 X93.3213 Y4.2210
G01 X93.3493 Y4.3021
G01 X93.3690 Y4.3692
G01 X93.3894 Y4.4530
G01 X93.4016 Y4.5384
G01 X93.4057 Y4.6245
G01 X93.4057 Y53.3755
G01 X93.4005 Y53.4724
G01 X93.3850 Y53.5681
G01 X93.3738 Y53.6197
G01 X93.3450 Y53.7224
G01 X93.3044 Y53.8211
G01 X93.2992 Y53.8317
G01 X93.2625 Y53.8980
G01 X93.2204 Y53.9611
G01 X93.1732 Y54.0205
G01 X93.1274 Y54.0733
G01 X93.0676 Y54.1360
G01 X93.0021 Y54.1927
G01 X92.9314 Y54.2429
G01 X92.8571 Y54.2857
G01 X92.7790 Y54.3213
G01 X92.6979 Y54.3493
G01 X92.6308 Y54.3690
G01 X92.5470 Y54.3894
G01 X92.4616 Y54.4016
G01 X92.3755 Y54.4057
G01 X4.6245 Y54.4057
G01 X4.5276 Y54.4005
G01 X4.4319 Y54.3850
G01 X4.3803 Y54.3738
G01 X4.2776 Y54.3450
G01 X4.1789 Y54.3044
G01 X4.1683 Y54.2992
G01 X4.1020 Y54.2625
G01 X4.0389 Y54.2204
G01 X3.9795 Y54.1732
G01 X3.9267 Y54.1274
G01 X3.8640 Y54.0676
G01 X3.8073 Y54.0021
G01 X3.7571 Y53.9314
G01 X3.7143 Y53.8571
G01 X3.6787 Y53.7790
G01 X3.6507 Y53.6979
G01 X3.6310 Y53.6308
G01 X3.6106 Y53.5470
G01 X3.5984 Y53.4616
G01 X3.5943 Y53.3755
G01 X3.5943 Y4.6245
G01 X3.5995 Y4.5276
G01 X3.6150 Y4.4319
G00 Z2.0000
G00 X3.7501 Y4.4612
G01 F60.00
G01 Z-0.1000
G01 F120.00
G01 X3.7613 Y4.4097
G01 X3.7856 Y4.3227
G01 X3.8201 Y4.2391
G01 X3.8245 Y4.2301
G01 X3.8556 Y4.1738
G01 X3.8913 Y4.1203
G01 X3.9313 Y4.0701
G01 X3.9770 Y4.0173
G01 X4.0277 Y3.9641
G01 X4.0833 Y3.9161
G01 X4.1431 Y3.8735
G01 X4.2062 Y3.8372
G01 X4.2723 Y3.8071
G01 X4.3411 Y3.7833
G01 X4.4081 Y3.7636
G01 X4.4792 Y3.7464
G01 X4.5515 Y3.7360
G01 X4.6245 Y3.7325
G01 X92.3755 Y3.7325
G01 X92.4576 Y3.7369
G01 X92.5388 Y3.7501
G01 X92.5903 Y3.7613
G01 X92.6774 Y3.7857
G01 X92.7610 Y3.8201
G01 X92.7699 Y3.8245
G01 X92.8262 Y3.8556
G01 X92.8797 Y3.8913
G01 X92.9299 Y3.9313
G01 X92.9827 Y3.9770
G01 X93.0359 Y4.0277
G01 X93.0839 Y4.0833
G01 X93.1265 Y4.1431
G01 X93.1628 Y4.2062
G01 X93.1929 Y4.2723
G01 X93.2167 Y4.3411
G01 X93.2364 Y4.4081
G01 X93.2536 Y4.4792
G01 X93.2640 Y4.5515
G01 X93.2675 Y4.6245
G01 X93.2675 Y53.3755
G01 X93.2631 Y53.4576
G01 X93.2499 Y53.5388
G01 X93.2387 Y53.5903
G01 X93.2144 Y53.6773
G01 X93.1799 Y53.7609
G01 X93.1755 Y53.7699
G01 X93.1444 Y53.8262
G01 X93.1087 Y53.8797
G01 X93.0687 Y53.9299
G01 X93.0230 Y53.9827
G01 X92.9723 Y54.0359
G01 X92.9167 Y54.0839
G01 X92.8569 Y54.1265
G01 X92.7938 Y54.1628
G01 X92.7277 Y54.1929
G01 X92.6589 Y54.2167
G01 X92.5919 Y54.2364
G01 X92.5208 Y54.2536
G01 X92.4485 Y54.2640
G01 X92.3755 Y54.2675
G01 X4.6245 Y54.2675
G01 X4.5424 Y54.2631
G01 X4.4612 Y54.2499
G01 X4.4097 Y54.2387
G01 X4.3226 Y54.2143
G01 X4.2390 Y54.1799
G01 X4.2301 Y54.1755
G01 X4.1738 Y54.1444
G01 X4.1203 Y54.1087
G01 X4.0701 Y54.0687
G01 X4.0173 Y54.0230
G01 X3.9641 Y53.9723
G01 X3.9161 Y53.9167
G01 X3.8735 Y53.8569
G01 X3.8372 Y53.7938
G01 X3.8071 Y53.7277
G01 X3.7833 Y53.6589
G01 X3.7636 Y53.5919
G01 X3.7464 Y53.5208
G01 X3.7360 Y53.4485
G01 X3.7325 Y53.3755
G01 X3.7325 Y4.6245
G01 X3.7369 Y4.5424
G01 X3.7501 Y4.4612
G00 Z2.0000
G00 X3.8851 Y4.4906
G01 F60.00
G01 Z-0.1000
G01 F120.00
G01 X3.8963 Y4.4391
G01 X3.9163 Y4.3677
G01 X3.9446 Y4.2992
G01 X3.9482 Y4.2918
G01 X3.9737 Y4.2457
G01 X4.0030 Y4.2018
G01 X4.0358 Y4.1606
G01 X4.0815 Y4.1078
G01 X4.1231 Y4.0642
G01 X4.1686 Y4.0248
G01 X4.2177 Y3.9899
G01 X4.2694 Y3.9602
G01 X4.3237 Y3.9354
G01 X4.3800 Y3.9159
G01 X4.4471 Y3.8963
G01 X4.5053 Y3.8821
G01 X4.5646 Y3.8736
G01 X4.6245 Y3.8707
G01 X92.3755 Y3.8707
G01 X92.4428 Y3.8743
G01 X92.5094 Y3.8851
G01 X92.5609 Y3.8963
G01 X92.6323 Y3.9163
G01 X92.7009 Y3.9446
G01 X92.7082 Y3.9482
G01 X92.7543 Y3.9737
G01 X92.7982 Y4.0029
G01 X92.8394 Y4.0358
G01 X92.8922 Y4.0815
G01 X92.9358 Y4.1231
G01 X92.9752 Y4.1686
G01 X93.0101 Y4.2177
G01 X93.0398 Y4.2694
G01 X93.0646 Y4.3237
G01 X93.0841 Y4.3800
G01 X93.1037 Y4.4471
G01 X93.1179 Y4.5053
G01 X93.1264 Y4.5646
G01 X93.1293 Y4.6245
G01 X93.1293 Y53.3755
G01 X93.1257 Y53.4428
G01 X93.1149 Y53.5094
G01 X93.1037 Y53.5609
G01 X93.0837 Y53.6323
G01 X93.0554 Y53.7008
G01 X93.0518 Y53.7082
G01 X93.0263 Y53.7543
G01 X92.9970 Y53.7982
G01 X92.9642 Y53.8394
G01 X92.9185 Y53.8922
G01 X92.8769 Y53.9358
G01 X92.8314 Y53.9752
G01 X92.7823 Y54.0101
G01 X92.7306 Y54.0398
G01 X92.6763 Y54.0646
G01 X92.6200 Y54.0841
G01 X92.5529 Y54.1037
G01 X92.4947 Y54.1179
G01 X92.4354 Y54.1264
G01 X92.3755 Y54.1293
G01 X4.6245 Y54.1293
G01 X4.5572 Y54.1257
G01 X4.4906 Y54.1149
G01 X4.4391 Y54.1037
G01 X4.3677 Y54.0837
G01 X4.2991 Y54.0554
G01 X4.2918 Y54.0518
G01 X4.2457 Y54.0263
G01 X4.2018 Y53.9971
G01 X4.1606 Y53.9642
G01 X4.1078 Y53.9185
G01 X4.0642 Y53.8769
G01 X4.0248 Y53.8314
G01 X3.9899 Y53.7823
G01 X3.9602 Y53.7306
G01 X3.9354 Y53.6763
G01 X3.9159 Y53.6200
G01 X3.8963 Y53.5529
G01 X3.8821 Y53.4947
G01 X3.8736 Y53.4354
G01 X3.8707 Y53.3755
G01 X3.8707 Y4.6245
G01 X3.8743 Y4.5572
G01 X3.8851 Y4.4906
G00 Z2.0000
G00 X4.0202 Y4.5200
G01 F60.00
G01 Z-0.1000
G01 F120.00
G01 X4.0314 Y4.4685
G01 X4.0470 Y4.4128
G01 X4.0691 Y4.3593
G01 X4.0719 Y4.3535
G01 X4.0918 Y4.3175
G01 X4.1146 Y4.2833
G01 X4.1402 Y4.2511
G01 X4.1860 Y4.1983
G01 X4.2184 Y4.1643
G01 X4.2540 Y4.1335
G01 X4.2923 Y4.1063
G01 X4.3326 Y4.0831
G01 X4.3750 Y4.0638
G01 X4.4190 Y4.0486
G01 X4.4860 Y4.0289
G01 X4.5315 Y4.0179
G01 X4.5778 Y4.0112
G01 X4.6245 Y4.0090
G01 X92.3755 Y4.0090
G01 X92.4280 Y4.0118
G01 X92.4800 Y4.0202
G01 X92.5315 Y4.0314
G01 X92.5872 Y4.0470
G01 X92.6407 Y4.0691
G01 X92.6465 Y4.0719
G01 X92.6825 Y4.0918
G01 X92.7167 Y4.1146
G01 X92.7489 Y4.1402
G01 X92.8017 Y4.1860
G01 X92.8357 Y4.2184
G01 X92.8665 Y4.2540
G01 X92.8937 Y4.2923
G01 X92.9169 Y4.3326
G01 X92.9362 Y4.3750
G01 X92.9514 Y4.4190
G01 X92.9711 Y4.4860
G01 X92.9821 Y4.5315
G01 X92.9888 Y4.5778
G01 X92.9910 Y4.6245
G01 X92.9910 Y53.3755
G01 X92.9882 Y53.4280
G01 X92.9798 Y53.4800
G01 X92.9686 Y53.5315
G01 X92.9530 Y53.5872
G01 X92.9309 Y53.6407
G01 X92.9281 Y53.6465
G01 X92.9082 Y53.6825
G01 X92.8854 Y53.7167
G01 X92.8598 Y53.7489
G01 X92.8140 Y53.8017
G01 X92.7816 Y53.8357
G01 X92.7460 Y53.8665
G01 X92.7077 Y53.8937
G01 X92.6674 Y53.9169
G01 X92.6250 Y53.9362
G01 X92.5810 Y53.9514
G01 X92.5140 Y53.9711
G01 X92.4685 Y53.9821
G01 X92.4222 Y53.9888
G01 X92.3755 Y53.9910
G01 X4.6245 Y53.9910
G01 X4.5720 Y53.9882
G01 X4.5200 Y53.9798
G01 X4.4685 Y53.9686
G01 X4.4128 Y53.9530
G01 X4.3593 Y53.9309
G01 X4.3535 Y53.9281
G01 X4.3175 Y53.9082
G01 X4.2833 Y53.8854
G01 X4.2511 Y53.8598
G01 X4.1983 Y53.8140
G01 X4.1643 Y53.7816
G01 X4.1335 Y53.7460
G01 X4.1063 Y53.7077
G01 X4.0831 Y53.6674
G01 X4.0638 Y53.6250
G01 X4.0486 Y53.5810
G01 X4.0289 Y53.5140
G01 X4.0179 Y53.4685
G01 X4.0112 Y53.4222
G01 X4.0090 Y53.3755
G01 X4.0090 Y4.6245
G01 X4.0118 Y4.5720
G01 X4.0202 Y4.5200
G00 Z2.0000
G00 X4.1553 Y4.5494
G01 F60.00
G01 Z-0.1000
G01 F120.00
G01 X4.1665 Y4.4979
G01 X4.1777 Y4.4578
G01 X4.1936 Y4.4194
G01 X4.2099 Y4.3894
G01 X4.2263 Y4.3648
G01 X4.2447 Y4.3416
G01 X4.2905 Y4.2888
G01 X4.3138 Y4.2644
G01 X4.3393 Y4.2423
G01 X4.3669 Y4.2227
G01 X4.3959 Y4.2060
G01 X4.4263 Y4.1922
G01 X4.4579 Y4.1812
G01 X4.5250 Y4.1615
G01 X4.5576 Y4.1536
G01 X4.5909 Y4.1488
G01 X4.6245 Y4.1472
G01 X92.3755 Y4.1472
G01 X92.4133 Y4.1492
G01 X92.4506 Y4.1553
G01 X92.5021 Y4.1665
G01 X92.5422 Y4.1777
G01 X92.5806 Y4.1936
G01 X92.6106 Y4.2099
G01 X92.6352 Y4.2263
G01 X92.6584 Y4.2447
G01 X92.7112 Y4.2905
G01 X92.7356 Y4.3138
G01 X92.7577 Y4.3393
G01 X92.7773 Y4.3669
G01 X92.7940 Y4.3959
G01 X92.8078 Y4.4263
G01 X92.8188 Y4.4579
G01 X92.8385 Y4.5250
G01 X92.8464 Y4.5576
G01 X92.8512 Y4.5909
G01 X92.8528 Y4.6245
G01 X92.8528 Y53.3755
G01 X92.8508 Y53.4133
G01 X92.8447 Y53.4506
G01 X92.8335 Y53.5021
G01 X92.8223 Y53.5422
G01 X92.8064 Y53.5806
G01 X92.7901 Y53.6106
G01 X92.7737 Y53.6352
G01 X92.7553 Y53.6584
G01 X92.7095 Y53.7112
G01 X92.6862 Y53.7356
G01 X92.6607 Y53.7577
G01 X92.6331 Y53.7773
G01 X92.6041 Y53.7940
G01 X92.5737 Y53.8078
G01 X92.5421 Y53.8188
G01 X92.4750 Y53.8385
G01 X92.4424 Y53.8464
G01 X92.4091 Y53.8512
G01 X92.3755 Y53.8528
G01 X4.6245 Y53.8528
G01 X4.5867 Y53.8508
G01 X4.5494 Y53.8447
G01 X4.4979 Y53.8335
G01 X4.4578 Y53.8223
G01 X4.4194 Y53.8064
G01 X4.3894 Y53.7901
G01 X4.3648 Y53.7737
G01 X4.3416 Y53.7553
G01 X4.2888 Y53.7095
G01 X4.2644 Y53.6862
G01 X4.2423 Y53.6607
G01 X4.2227 Y53.6331
G01 X4.2060 Y53.6041
G01 X4.1922 Y53.5737
G01 X4.1812 Y53.5421
G01 X4.1615 Y53.4750
G01 X4.1536 Y53.4424
G01 X4.1488 Y53.4091
G01 X4.1472 Y53.3755
G01 X4.1472 Y4.6245
G01 X4.1492 Y4.5867
G01 X4.1553 Y4.5494
G00 Z2.0000
G00 X4.2904 Y4.5788
G01 F60.00
G01 Z-0.1000
G01 F120.00
G01 X4.3016 Y4.5273
G01 X4.3084 Y4.5029
G01 X4.3181 Y4.4795
G01 X4.3280 Y4.4612
G01 X4.3380 Y4.4462
G01 X4.3492 Y4.4322
G01 X4.3949 Y4.3794
G01 X4.4091 Y4.3645
G01 X4.4247 Y4.3510
G01 X4.4415 Y4.3391
G01 X4.4591 Y4.3290
G01 X4.4776 Y4.3205
G01 X4.4969 Y4.3139
G01 X4.5639 Y4.2942
G01 X4.5838 Y4.2893
G01 X4.6041 Y4.2864
G01 X4.6245 Y4.2855
G01 X92.3755 Y4.2855
G01 X92.3985 Y4.2867
G01 X92.4212 Y4.2904
G01 X92.4727 Y4.3016
G01 X92.4971 Y4.3084
G01 X92.5205 Y4.3181
G01 X92.5388 Y4.3280
G01 X92.5538 Y4.3380
G01 X92.5678 Y4.3492
G01 X92.6206 Y4.3949
G01 X92.6355 Y4.4091
G01 X92.6490 Y4.4247
G01 X92.6609 Y4.4414
G01 X92.6710 Y4.4591
G01 X92.6795 Y4.4776
G01 X92.6861 Y4.4969
G01 X92.7058 Y4.5639
G01 X92.7107 Y4.5838
G01 X92.7136 Y4.6041
G01 X92.7145 Y4.6245
G01 X92.7145 Y53.3755
G01 X92.7133 Y53.3985
G01 X92.7096 Y53.4212
G01 X92.6984 Y53.4727
G01 X92.6916 Y53.4971
G01 X92.6819 Y53.5205
G01 X92.6720 Y53.5388
G01 X92.6620 Y53.5538
G01 X92.6508 Y53.5678
G01 X92.6051 Y53.6206
G01 X92.5909 Y53.6355
G01 X92.5753 Y53.6490
G01 X92.5585 Y53.6609
G01 X92.5409 Y53.6710
G01 X92.5224 Y53.6795
G01 X92.5031 Y53.6861
G01 X92.4361 Y53.7058
G01 X92.4162 Y53.7107
G01 X92.3959 Y53.7136
G01 X92.3755 Y53.7145
G01 X4.6245 Y53.7145
G01 X4.6015 Y53.7133
G01 X4.5788 Y53.7096
G01 X4.5273 Y53.6984
G01 X4.5029 Y53.6916
G01 X4.4795 Y53.6819
G01 X4.4612 Y53.6720
G01 X4.4462 Y53.6620
G01 X4.4322 Y53.6508
G01 X4.3794 Y53.6051
G01 X4.3645 Y53.5909
G01 X4.3510 Y53.5753
G01 X4.3391 Y53.5586
G01 X4.3290 Y53.5409
G01 X4.3205 Y53.5224
G01 X4.3139 Y53.5031
G01 X4.2942 Y53.4361
G01 X4.2893 Y53.4162
G01 X4.2864 Y53.3959
G01 X4.2855 Y53.3755
G01 X4.2855 Y4.6245
G01 X4.2867 Y4.6015
G01 X4.2904 Y4.5788
G00 Z2.0000
G00 X4.4255 Y4.6082
G01 F60.00
G01 Z-0.1000
G01 F120.00
G01 X4.4367 Y4.5567
G01 X4.4391 Y4.5480
G01 X4.4430 Y4.5387
G01 X4.4461 Y4.5331
G01 X4.4497 Y4.5277
G01 X4.4537 Y4.5227
G01 X4.4994 Y4.4699
G01 X4.5045 Y4.4646
G01 X4.5100 Y4.4598
G01 X4.5160 Y4.4555
G01 X4.5223 Y4.4519
G01 X4.5289 Y4.4489
G01 X4.5358 Y4.4465
G01 X4.6029 Y4.4268
G01 X4.6100 Y4.4251
G01 X4.6172 Y4.4240
G01 X4.6245 Y4.4237
G01 X92.3755 Y4.4237
G01 X92.3837 Y4.4241
G01 X92.3918 Y4.4255
G01 X92.4433 Y4.4367
G01 X92.4520 Y4.4391
G01 X92.4604 Y4.4425
G01 X92.4669 Y4.4461
G01 X92.4723 Y4.4497
G01 X92.4773 Y4.4537
G01 X92.5301 Y4.4994
G01 X92.5354 Y4.5045
G01 X92.5402 Y4.5100
G01 X92.5445 Y4.5160
G01 X92.5481 Y4.5223
G01 X92.5511 Y4.5289
G01 X92.5535 Y4.5358
G01 X92.5732 Y4.6029
G01 X92.5749 Y4.6100
G01 X92.5760 Y4.6172
G01 X92.5763 Y4.6245
G01 X92.5763 Y53.3755
G01 X92.5759 Y53.3837
G01 X92.5745 Y53.3918
G01 X92.5633 Y53.4433
G01 X92.5609 Y53.4520
G01 X92.5575 Y53.4604
G01 X92.5539 Y53.4669
G01 X92.5503 Y53.4723
G01 X92.5463 Y53.4773
G01 X92.5006 Y53.5301
G01 X92.4955 Y53.5354
G01 X92.4900 Y53.5402
G01 X92.4840 Y53.5445
G01 X92.4777 Y53.5481
G01 X92.4711 Y53.5511
G01 X92.4642 Y53.5535
G01 X92.3971 Y53.5732
G01 X92.3900 Y53.5749
G01 X92.3828 Y53.5760
G01 X92.3755 Y53.5763
G01 X4.6245 Y53.5763
G01 X4.6163 Y53.5759
G01 X4.6082 Y53.5745
G01 X4.5567 Y53.5633
G01 X4.5480 Y53.5609
G01 X4.5396 Y53.5575
G01 X4.5331 Y53.5539
G01 X4.5277 Y53.5503
G01 X4.5227 Y53.5463
G01 X4.4699 Y53.5006
G01 X4.4646 Y53.4955
G01 X4.4598 Y53.4900
G01 X4.4555 Y53.4840
G01 X4.4519 Y53.4777
G01 X4.4489 Y53.4711
G01 X4.4465 Y53.4642
G01 X4.4268 Y53.3971
G01 X4.4251 Y53.3900
G01 X4.4240 Y53.3828
G01 X4.4237 Y53.3755
G01 X4.4237 Y4.6245
G01 X4.4241 Y4.6163
G01 X4.4255 Y4.6082
G00 Z2.0000
G00 X6.6901 Y6.2687
G01 F60.00
G01 Z-0.1000
G01 F120.00
G01 X47.7774 Y6.2687
G01 X47.7774 Y16.6726
G01 X6.6901 Y16.6726
G01 X6.6901 Y6.2687
G00 Z2.0000
G00 X6.8283 Y6.4070
G01 F60.00
G01 Z-0.1000
G01 F120.00
G01 X47.6391 Y6.4070
G01 X47.6391 Y16.5344
G01 X6.8283 Y16.5344
G01 X6.8283 Y6.4070
G00 Z2.0000
G00 X7.0429 Y6.8676
G01 F60.00
G01 Z-0.1000
G01 F120.00
G01 X7.0420 Y6.8529
G01 X7.0420 Y6.8454
G01 X7.0435 Y6.8232
G01 X7.0458 Y6.8077
G01 X7.0507 Y6.7869
G01 X7.0529 Y6.7797
G01 X7.0607 Y6.7589
G01 X7.0670 Y6.7456
G01 X7.0781 Y6.7263
G01 X7.0820 Y6.7206
G01 X7.0911 Y6.7082
G01 X7.0959 Y6.7024
G01 X7.1111 Y6.6861
G01 X7.1220 Y6.6763
G01 X7.1397 Y6.6627
G01 X7.1586 Y6.6509
G01 X7.1785 Y6.6411
G01 X7.1994 Y6.6332
G01 X7.2066 Y6.6311
G01 X7.2282 Y6.6260
G01 X7.2428 Y6.6239
G01 X7.2650 Y6.6224
G01 X7.3402 Y6.6223
G01 X7.3601 Y6.6232
G01 X7.3821 Y6.6263
G01 X7.4038 Y6.6314
G01 X7.4178 Y6.6360
G01 X7.4305 Y6.6411
G01 X7.4417 Y6.6462
G01 X7.5845 Y6.7177
G01 X7.6007 Y6.7267
G01 X7.6172 Y6.7377
G01 X7.6288 Y6.7468
G01 X7.6409 Y6.7576
G01 X7.6519 Y6.7692
G01 X7.6646 Y6.7845
G01 X7.6730 Y6.7966
G01 X7.6820 Y6.8116
G01 X7.7574 Y6.9620
G01 X7.7626 Y6.9732
G01 X7.7677 Y6.9859
G01 X7.7741 Y7.0066
G01 X7.7775 Y7.0220
G01 X7.7798 Y7.0375
G01 X7.7810 Y7.0511
G01 X7.7814 Y7.0635
G01 X7.7814 Y8.3492
G01 X7.7806 Y8.3677
G01 X7.7777 Y8.3897
G01 X7.7726 Y8.4114
G01 X7.7655 Y8.4325
G01 X7.7626 Y8.4394
G01 X7.7527 Y8.4594
G01 X7.7414 Y8.4778
G01 X7.7274 Y8.4960
G01 X7.7122 Y8.5122
G01 X7.7013 Y8.5221
G01 X7.6943 Y8.5277
G01 X7.7013 Y8.5334
G01 X7.7149 Y8.5459
G01 X7.7890 Y8.6200
G01 X7.8013 Y8.6338
G01 X7.8124 Y8.6486
G01 X7.8242 Y8.6675
G01 X7.8277 Y8.6742
G01 X7.8369 Y8.6944
G01 X7.8430 Y8.7119
G01 X7.8485 Y8.7335
G01 X7.8517 Y8.7555
G01 X7.8527 Y8.7740
G01 X7.8527 Y8.7815
G01 X7.8517 Y8.8000
G01 X7.8485 Y8.8220
G01 X7.8441 Y8.8400
G01 X7.8419 Y8.8472
G01 X7.8355 Y8.8646
G01 X7.8260 Y8.8847
G01 X7.8166 Y8.9006
G01 X7.8124 Y8.9069
G01 X7.7989 Y8.9245
G01 X7.7864 Y8.9382
G01 X7.7149 Y9.0096
G01 X7.6984 Y9.0246
G01 X7.6806 Y9.0378
G01 X7.6614 Y9.0493
G01 X7.6413 Y9.0588
G01 X7.6239 Y9.0651
G01 X7.6167 Y9.0673
G01 X7.5951 Y9.0723
G01 X7.5768 Y9.0750
G01 X7.5583 Y9.0760
G01 X7.5507 Y9.0760
G01 X7.5323 Y9.0750
G01 X7.5140 Y9.0723
G01 X7.5066 Y9.0709
G01 X7.4886 Y9.0663
G01 X7.4676 Y9.0588
G01 X7.4476 Y9.0493
G01 X7.4285 Y9.0378
G01 X7.4106 Y9.0245
G01 X7.3941 Y9.0096
G01 X7.3227 Y8.9382
G01 X7.3077 Y8.9217
G01 X7.2944 Y8.9038
G01 X7.2830 Y8.8847
G01 X7.2735 Y8.8646
G01 X7.2672 Y8.8472
G01 X7.2650 Y8.8400
G01 X7.2606 Y8.8220
G01 X7.2573 Y8.8000
G01 X7.2562 Y8.7777
G01 X7.2573 Y8.7555
G01 X7.2606 Y8.7335
G01 X7.2660 Y8.7119
G01 X7.2735 Y8.6909
G01 X7.2813 Y8.6742
G01 X7.2849 Y8.6675
G01 X7.2966 Y8.6486
G01 X7.3077 Y8.6338
G01 X7.3201 Y8.6200
G01 X7.3941 Y8.5459
G01 X7.4077 Y8.5334
G01 X7.4147 Y8.5277
G01 X7.4077 Y8.5221
G01 X7.3968 Y8.5122
G01 X7.3816 Y8.4960
G01 X7.3680 Y8.4783
G01 X7.3563 Y8.4594
G01 X7.3464 Y8.4394
G01 X7.3386 Y8.4186
G01 X7.3364 Y8.4114
G01 X7.3315 Y8.3906
G01 X7.3292 Y8.3752
G01 X7.3285 Y8.3677
G01 X7.3276 Y8.3492
G01 X7.3276 Y7.1170
G01 X7.3140 Y7.0897
G01 X7.2867 Y7.0760
G01 X7.2650 Y7.0760
G01 X7.2428 Y7.0745
G01 X7.2209 Y7.0709
G01 X7.1994 Y7.0651
G01 X7.1785 Y7.0572
G01 X7.1586 Y7.0474
G01 X7.1402 Y7.0360
G01 X7.1220 Y7.0221
G01 X7.1058 Y7.0069
G01 X7.0911 Y6.9901
G01 X7.0781 Y6.9720
G01 X7.0670 Y6.9528
G01 X7.0578 Y6.9325
G01 X7.0507 Y6.9114
G01 X7.0458 Y6.8906
G01 X7.0435 Y6.8752
G01 X7.0429 Y6.8676
G00 Z2.0000
G00 X6.9666 Y7.2515
G01 F60.00
G01 Z-0.1000
G01 F120.00
G01 X6.9773 Y7.2594
G01 X7.0038 Y7.2770
G01 X7.0164 Y7.2845
G01 X7.0512 Y7.3029
G01 X7.0512 Y8.3492
G01 X7.0523 Y8.3812
G01 X7.0529 Y8.3812
G01 X7.0557 Y8.4157
G01 X7.0585 Y8.4346
G01 X7.0646 Y8.4643
G01 X7.0682 Y8.4786
G01 X7.0714 Y8.4892
G01 X7.0645 Y8.4982
G01 X7.0553 Y8.5127
G01 X7.0392 Y8.5405
G01 X7.0314 Y8.5560
G01 X7.0181 Y8.5849
G01 X7.0118 Y8.6013
G01 X7.0014 Y8.6316
G01 X6.9968 Y8.6483
G01 X6.9894 Y8.6796
G01 X6.9843 Y8.7112
G01 X6.9822 Y8.7284
G01 X6.9802 Y8.7604
G01 X6.9802 Y8.7777
G01 X6.9797 Y8.7777
G01 X6.9802 Y8.7777
G01 X6.9802 Y8.7951
G01 X6.9822 Y8.8271
G01 X6.9864 Y8.8589
G01 X6.9871 Y8.8588
G01 X6.9894 Y8.8760
G01 X6.9968 Y8.9071
G01 X7.0014 Y8.9239
G01 X7.0068 Y8.9403
G01 X7.0181 Y8.9704
G01 X7.0251 Y8.9862
G01 X7.0391 Y9.0149
G01 X7.0477 Y9.0301
G01 X7.0646 Y9.0574
G01 X7.0745 Y9.0716
G01 X7.0939 Y9.0970
G01 X7.1053 Y9.1102
G01 X7.1272 Y9.1337
G01 X7.1986 Y9.2051
G01 X7.2111 Y9.2171
G01 X7.2351 Y9.2382
G01 X7.2489 Y9.2489
G01 X7.2607 Y9.2577
G01 X7.2611 Y9.2571
G01 X7.2749 Y9.2677
G01 X7.3021 Y9.2845
G01 X7.3172 Y9.2931
G01 X7.3327 Y9.3009
G01 X7.3617 Y9.3141
G01 X7.3781 Y9.3205
G01 X7.4084 Y9.3308
G01 X7.4251 Y9.3355
G01 X7.4563 Y9.3429
G01 X7.4880 Y9.3480
G01 X7.5051 Y9.3501
G01 X7.5386 Y9.3521
G01 X7.4680 Y9.3875
G01 X7.4450 Y9.4001
G01 X7.4217 Y9.4143
G01 X7.4027 Y9.4276
G01 X7.4029 Y9.4279
G01 X7.3850 Y9.4408
G01 X7.3641 Y9.4584
G01 X7.3414 Y9.4796
G01 X7.2638 Y9.5574
G01 X7.2482 Y9.5745
G01 X7.2485 Y9.5748
G01 X7.2338 Y9.5914
G01 X7.2180 Y9.6123
G01 X7.2174 Y9.6131
G01 X7.2179 Y9.6135
G01 X7.2087 Y9.6256
G01 X7.2048 Y9.6313
G01 X7.1911 Y9.6537
G01 X7.1798 Y9.6739
G01 X7.1043 Y9.8247
G01 X7.0965 Y9.8413
G01 X7.0877 Y9.8616
G01 X7.0861 Y9.8654
G01 X7.0866 Y9.8656
G01 X7.0786 Y9.8862
G01 X7.0783 Y9.8872
G01 X7.0787 Y9.8874
G01 X7.0703 Y9.9122
G01 X7.0646 Y9.9347
G01 X7.0592 Y9.9603
G01 X7.0557 Y9.9833
G01 X7.0528 Y10.0093
G01 X7.0516 Y10.0314
G01 X7.0512 Y10.0498
G01 X7.0512 Y11.2641
G01 X7.0523 Y11.2961
G01 X7.0529 Y11.2961
G01 X7.0557 Y11.3306
G01 X7.0585 Y11.3495
G01 X7.0646 Y11.3792
G01 X7.0682 Y11.3935
G01 X7.0783 Y11.4267
G01 X7.0832 Y11.4405
G01 X7.0965 Y11.4726
G01 X7.1028 Y11.4859
G01 X7.1191 Y11.5165
G01 X7.1267 Y11.5291
G01 X7.1460 Y11.5579
G01 X7.1547 Y11.5697
G01 X7.1767 Y11.5965
G01 X7.1866 Y11.6075
G01 X7.2111 Y11.6320
G01 X7.2221 Y11.6419
G01 X7.2225 Y11.6414
G01 X7.2489 Y11.6639
G01 X7.2630 Y11.6744
G01 X7.2729 Y11.6809
G01 X7.2601 Y11.6822
G01 X7.2412 Y11.6856
G01 X7.2118 Y11.6924
G01 X7.1976 Y11.6964
G01 X7.1647 Y11.7074
G01 X7.1510 Y11.7127
G01 X7.1194 Y11.7268
G01 X7.1062 Y11.7335
G01 X7.0761 Y11.7507
G01 X7.0637 Y11.7586
G01 X7.0638 Y11.7588
G01 X7.0354 Y11.7786
G01 X7.0238 Y11.7877
G01 X6.9976 Y11.8104
G01 X6.9829 Y11.8246
G01 X6.9666 Y11.8421
G01 X6.9666 Y7.2515
G00 Z2.0000
G00 X7.8796 Y8.5150
G01 F60.00
G01 Z-0.1000
G01 F120.00
G01 X7.8876 Y8.4985
G01 X7.8956 Y8.4790
G01 X7.9006 Y8.4652
G01 X7.9037 Y8.4546
G01 X7.9037 Y8.5409
G01 X7.8914 Y8.5272
G01 X7.8796 Y8.5150
G00 Z2.0000
G00 X8.0419 Y8.8492
G01 F60.00
G01 Z-0.1000
G01 F120.00
G01 X8.0419 Y7.3492
G01 X8.0427 Y7.3307
G01 X8.0435 Y7.3232
G01 X8.0456 Y7.3086
G01 X8.0507 Y7.2869
G01 X8.0578 Y7.2659
G01 X8.0607 Y7.2589
G01 X8.0706 Y7.2389
G01 X8.0820 Y7.2206
G01 X8.0911 Y7.2082
G01 X8.1058 Y7.1915
G01 X8.1111 Y7.1861
G01 X8.1278 Y7.1715
G01 X8.1397 Y7.1627
G01 X8.1586 Y7.1509
G01 X8.1785 Y7.1411
G01 X8.1994 Y7.1332
G01 X8.2066 Y7.1311
G01 X8.2282 Y7.1260
G01 X8.2428 Y7.1239
G01 X8.2650 Y7.1224
G01 X8.2873 Y7.1231
G01 X8.3093 Y7.1260
G01 X8.3167 Y7.1275
G01 X8.3310 Y7.1311
G01 X8.3521 Y7.1382
G01 X8.3724 Y7.1474
G01 X8.3790 Y7.1509
G01 X8.3974 Y7.1623
G01 X8.4098 Y7.1715
G01 X8.4265 Y7.1861
G01 X8.4417 Y7.2024
G01 X8.4465 Y7.2082
G01 X8.4595 Y7.2263
G01 X8.4670 Y7.2389
G01 X8.4769 Y7.2589
G01 X8.4847 Y7.2797
G01 X8.4869 Y7.2869
G01 X8.4920 Y7.3086
G01 X8.4941 Y7.3232
G01 X8.4956 Y7.3454
G01 X8.4957 Y8.1018
G01 X8.5366 Y8.1223
G01 X8.6438 Y8.1223
G01 X8.6711 Y8.1086
G01 X8.6848 Y8.0813
G01 X8.6848 Y7.3492
G01 X8.6856 Y7.3307
G01 X8.6885 Y7.3086
G01 X8.6935 Y7.2869
G01 X8.7007 Y7.2659
G01 X8.7099 Y7.2456
G01 X8.7134 Y7.2389
G01 X8.7248 Y7.2206
G01 X8.7387 Y7.2024
G01 X8.7540 Y7.1861
G01 X8.7707 Y7.1715
G01 X8.7825 Y7.1627
G01 X8.8014 Y7.1509
G01 X8.8214 Y7.1411
G01 X8.8422 Y7.1332
G01 X8.8494 Y7.1311
G01 X8.8699 Y7.1262
G01 X8.8857 Y7.1239
G01 X8.8932 Y7.1231
G01 X8.9154 Y7.1224
G01 X8.9376 Y7.1239
G01 X8.9596 Y7.1275
G01 X8.9811 Y7.1332
G01 X9.0019 Y7.1411
G01 X9.0219 Y7.1509
G01 X9.0403 Y7.1623
G01 X9.0526 Y7.1715
G01 X9.0693 Y7.1861
G01 X9.0747 Y7.1915
G01 X9.0893 Y7.2082
G01 X9.0981 Y7.2200
G01 X9.1099 Y7.2389
G01 X9.1197 Y7.2589
G01 X9.1276 Y7.2797
G01 X9.1298 Y7.2869
G01 X9.1347 Y7.3077
G01 X9.1370 Y7.3232
G01 X9.1377 Y7.3307
G01 X9.1385 Y7.3492
G01 X9.1385 Y8.1349
G01 X9.1376 Y8.1547
G01 X9.1348 Y8.1754
G01 X9.1314 Y8.1912
G01 X9.1276 Y8.2043
G01 X9.1248 Y8.2124
G01 X9.1197 Y8.2252
G01 X9.1146 Y8.2363
G01 X9.0431 Y8.3792
G01 X9.0358 Y8.3927
G01 X9.0303 Y8.4015
G01 X9.0217 Y8.4138
G01 X9.0140 Y8.4235
G01 X9.0032 Y8.4355
G01 X8.9934 Y8.4450
G01 X8.9860 Y8.4515
G01 X8.9763 Y8.4592
G01 X8.9642 Y8.4677
G01 X8.9558 Y8.4729
G01 X8.9417 Y8.4807
G01 X8.7988 Y8.5521
G01 X8.7819 Y8.5596
G01 X8.7668 Y8.5651
G01 X8.7542 Y8.5688
G01 X8.7392 Y8.5721
G01 X8.7233 Y8.5745
G01 X8.7097 Y8.5757
G01 X8.6974 Y8.5760
G01 X8.4957 Y8.5760
G01 X8.4956 Y8.8529
G01 X8.4949 Y8.8677
G01 X8.4920 Y8.8897
G01 X8.4869 Y8.9114
G01 X8.4798 Y8.9325
G01 X8.4706 Y8.9528
G01 X8.4670 Y8.9594
G01 X8.4556 Y8.9778
G01 X8.4417 Y8.9960
G01 X8.4265 Y9.0122
G01 X8.4098 Y9.0269
G01 X8.3979 Y9.0356
G01 X8.3790 Y9.0474
G01 X8.3591 Y9.0572
G01 X8.3382 Y9.0651
G01 X8.3310 Y9.0673
G01 X8.3106 Y9.0721
G01 X8.2948 Y9.0745
G01 X8.2873 Y9.0752
G01 X8.2650 Y9.0760
G01 X8.2503 Y9.0752
G01 X8.2282 Y9.0723
G01 X8.2209 Y9.0709
G01 X8.1994 Y9.0651
G01 X8.1785 Y9.0572
G01 X8.1652 Y9.0510
G01 X8.1459 Y9.0398
G01 X8.1402 Y9.0360
G01 X8.1278 Y9.0269
G01 X8.1220 Y9.0221
G01 X8.1058 Y9.0069
G01 X8.0911 Y8.9901
G01 X8.0823 Y8.9783
G01 X8.0706 Y8.9594
G01 X8.0607 Y8.9394
G01 X8.0529 Y8.9186
G01 X8.0507 Y8.9114
G01 X8.0458 Y8.8906
G01 X8.0435 Y8.8752
G01 X8.0427 Y8.8677
G01 X8.0419 Y8.8492
G00 Z2.0000
G00 X7.8440 Y9.2607
G01 F60.00
G01 Z-0.1000
G01 F120.00
G01 X7.8602 Y9.2489
G01 X7.8738 Y9.2383
G01 X7.8979 Y9.2171
G01 X7.9120 Y9.2036
G01 X7.9254 Y9.2171
G01 X7.9363 Y9.2269
G01 X7.9368 Y9.2264
G01 X7.9631 Y9.2489
G01 X7.9793 Y9.2607
G01 X7.8440 Y9.2607
G00 Z2.0000
G00 X8.3956 Y9.3361
G01 F60.00
G01 Z-0.1000
G01 F120.00
G01 X8.4314 Y9.3254
G01 X8.4452 Y9.3205
G01 X8.4773 Y9.3072
G01 X8.4906 Y9.3009
G01 X8.5212 Y9.2845
G01 X8.5338 Y9.2770
G01 X8.5626 Y9.2577
G01 X8.5745 Y9.2489
G01 X8.6013 Y9.2269
G01 X8.6122 Y9.2171
G01 X8.6367 Y9.1925
G01 X8.6466 Y9.1816
G01 X8.6461 Y9.1812
G01 X8.6686 Y9.1548
G01 X8.6791 Y9.1407
G01 X8.6966 Y9.1142
G01 X8.7042 Y9.1015
G01 X8.7205 Y9.0710
G01 X8.7268 Y9.0576
G01 X8.7401 Y9.0256
G01 X8.7450 Y9.0118
G01 X8.7446 Y9.0116
G01 X8.7551 Y8.9786
G01 X8.7587 Y8.9643
G01 X8.7654 Y8.9303
G01 X8.7676 Y8.9157
G01 X8.7710 Y8.8812
G01 X8.7722 Y8.8465
G01 X8.7908 Y8.8438
G01 X8.7908 Y8.8433
G01 X8.8135 Y8.8388
G01 X8.8133 Y8.8379
G01 X8.8349 Y8.8333
G01 X8.8599 Y8.8254
G01 X8.8855 Y8.8160
G01 X8.9058 Y8.8072
G01 X8.9225 Y8.7994
G01 X9.0653 Y8.7280
G01 X9.0652 Y8.7276
G01 X9.0806 Y8.7198
G01 X9.1018 Y8.7078
G01 X9.1228 Y8.6941
G01 X9.1427 Y8.6801
G01 X9.1423 Y8.6796
G01 X9.1532 Y8.6713
G01 X9.1534 Y8.6716
G01 X9.1623 Y8.6644
G01 X9.1807 Y8.6485
G01 X9.1986 Y8.6310
G01 X9.2014 Y8.6280
G01 X9.2012 Y8.6278
G01 X9.2154 Y8.6133
G01 X9.2149 Y8.6129
G01 X9.2240 Y8.6027
G01 X9.2242 Y8.6029
G01 X9.2331 Y8.5922
G01 X9.2574 Y8.6204
G01 X9.2715 Y8.6351
G01 X9.2927 Y8.6548
G01 X9.3039 Y8.6644
G01 X9.3313 Y8.6857
G01 X9.3446 Y8.6950
G01 X9.3727 Y8.7126
G01 X9.4008 Y8.7280
G01 X9.5437 Y8.7994
G01 X9.5603 Y8.8072
G01 X9.5844 Y8.8175
G01 X9.5846 Y8.8170
G01 X9.6052 Y8.8251
G01 X9.6062 Y8.8254
G01 X9.6064 Y8.8250
G01 X9.6273 Y8.8322
G01 X9.6527 Y8.8388
G01 X9.6793 Y8.8445
G01 X9.7012 Y8.8478
G01 X9.7242 Y8.8505
G01 X9.7504 Y8.8521
G01 X9.7688 Y8.8525
G01 X10.0545 Y8.8525
G01 X10.0729 Y8.8521
G01 X10.0950 Y8.8509
G01 X10.1211 Y8.8480
G01 X10.1221 Y8.8478
G01 X10.1220 Y8.8472
G01 X10.1335 Y8.8461
G01 X10.1440 Y8.8445
G01 X10.1480 Y8.8438
G01 X10.1479 Y8.8433
G01 X10.1696 Y8.8391
G01 X10.1706 Y8.8388
G01 X10.1704 Y8.8379
G01 X10.1921 Y8.8333
G01 X10.2181 Y8.8251
G01 X10.2427 Y8.8160
G01 X10.2630 Y8.8072
G01 X10.2796 Y8.7994
G01 X10.4225 Y8.7280
G01 X10.4223 Y8.7276
G01 X10.4314 Y8.7233
G01 X10.4533 Y8.7111
G01 X10.4739 Y8.6982
G01 X10.4998 Y8.6801
G01 X10.4995 Y8.6796
G01 X10.5138 Y8.6690
G01 X10.5378 Y8.6485
G01 X10.5506 Y8.6361
G01 X10.5586 Y8.6280
G01 X10.5584 Y8.6278
G01 X10.5681 Y8.6182
G01 X10.5725 Y8.6133
G01 X10.5721 Y8.6129
G01 X10.5811 Y8.6027
G01 X10.5814 Y8.6029
G01 X10.5902 Y8.5922
G01 X10.6079 Y8.6133
G01 X10.6247 Y8.6310
G01 X10.6328 Y8.6390
G01 X10.6330 Y8.6387
G01 X10.6426 Y8.6485
G01 X10.6475 Y8.6529
G01 X10.6479 Y8.6524
G01 X10.6610 Y8.6644
G01 X10.6806 Y8.6801
G01 X10.7005 Y8.6941
G01 X10.7215 Y8.7078
G01 X10.7271 Y8.7111
G01 X10.7274 Y8.7108
G01 X10.7427 Y8.7198
G01 X10.7580 Y8.7280
G01 X10.9008 Y8.7994
G01 X10.9175 Y8.8072
G01 X10.9378 Y8.8160
G01 X10.9416 Y8.8175
G01 X10.9418 Y8.8170
G01 X10.9634 Y8.8254
G01 X10.9635 Y8.8250
G01 X10.9884 Y8.8334
G01 X11.0098 Y8.8388
G01 X11.0325 Y8.8438
G01 X11.0594 Y8.8480
G01 X11.0855 Y8.8509
G01 X11.1076 Y8.8521
G01 X11.1259 Y8.8525
G01 X11.3402 Y8.8525
G01 X11.3586 Y8.8521
G01 X11.3848 Y8.8505
G01 X11.4078 Y8.8478
G01 X11.4077 Y8.8472
G01 X11.4192 Y8.8461
G01 X11.4297 Y8.8445
G01 X11.4337 Y8.8438
G01 X11.4336 Y8.8433
G01 X11.4553 Y8.8391
G01 X11.4563 Y8.8388
G01 X11.4561 Y8.8379
G01 X11.4778 Y8.8333
G01 X11.4817 Y8.8322
G01 X11.5038 Y8.8251
G01 X11.5284 Y8.8160
G01 X11.5487 Y8.8072
G01 X11.5653 Y8.7994
G01 X11.6940 Y8.7350
G01 X11.6940 Y8.8492
G01 X11.6952 Y8.8812
G01 X11.6957 Y8.8812
G01 X11.6986 Y8.9157
G01 X11.7007 Y8.9303
G01 X11.7075 Y8.9643
G01 X11.7111 Y8.9786
G01 X11.7211 Y9.0118
G01 X11.7261 Y9.0256
G01 X11.7394 Y9.0576
G01 X11.7457 Y9.0710
G01 X11.7620 Y9.1015
G01 X11.7696 Y9.1142
G01 X11.7888 Y9.1430
G01 X11.7976 Y9.1548
G01 X11.8196 Y9.1816
G01 X11.8295 Y9.1925
G01 X11.8540 Y9.2171
G01 X11.8649 Y9.2269
G01 X11.8654 Y9.2264
G01 X11.8917 Y9.2489
G01 X11.9059 Y9.2594
G01 X11.9324 Y9.2770
G01 X11.9450 Y9.2845
G01 X11.9756 Y9.3009
G01 X11.9889 Y9.3072
G01 X12.0209 Y9.3205
G01 X12.0348 Y9.3254
G01 X12.0349 Y9.3250
G01 X12.0680 Y9.3355
G01 X12.0822 Y9.3391
G01 X12.1163 Y9.3458
G01 X12.1308 Y9.3480
G01 X12.1653 Y9.3514
G01 X12.1815 Y9.3521
G01 X12.1151 Y9.3853
G01 X12.1153 Y9.3856
G01 X12.0998 Y9.3934
G01 X12.0787 Y9.4055
G01 X12.0637 Y9.4151
G01 X12.0430 Y9.4293
G01 X12.0378 Y9.4332
G01 X12.0381 Y9.4337
G01 X12.0238 Y9.4442
G01 X12.0046 Y9.4604
G01 X11.9870 Y9.4771
G01 X11.9790 Y9.4852
G01 X11.9792 Y9.4854
G01 X11.9695 Y9.4951
G01 X11.9651 Y9.4999
G01 X11.9655 Y9.5004
G01 X11.9535 Y9.5135
G01 X11.9379 Y9.5331
G01 X11.9238 Y9.5529
G01 X11.9102 Y9.5739
G01 X11.8981 Y9.5951
G01 X11.8908 Y9.6090
G01 X11.8792 Y9.5781
G01 X11.8666 Y9.5488
G01 X11.8521 Y9.5207
G01 X11.8434 Y9.5054
G01 X11.8261 Y9.4787
G01 X11.8159 Y9.4642
G01 X11.8051 Y9.4503
G01 X11.7846 Y9.4260
G01 X11.7726 Y9.4134
G01 X11.7498 Y9.3912
G01 X11.7254 Y9.3706
G01 X11.7116 Y9.3598
G01 X11.6971 Y9.3496
G01 X11.6853 Y9.3418
G01 X11.6849 Y9.3425
G01 X11.6704 Y9.3323
G01 X11.6551 Y9.3237
G01 X11.6269 Y9.3091
G01 X11.5977 Y9.2965
G01 X11.5975 Y9.2969
G01 X11.5813 Y9.2902
G01 X11.5645 Y9.2846
G01 X11.5339 Y9.2758
G01 X11.5168 Y9.2720
G01 X11.4856 Y9.2662
G01 X11.4539 Y9.2626
G01 X11.4364 Y9.2613
G01 X11.4189 Y9.2609
G01 X11.3870 Y9.2613
G01 X11.3694 Y9.2626
G01 X11.3377 Y9.2662
G01 X11.3066 Y9.2720
G01 X11.3067 Y9.2726
G01 X11.2894 Y9.2758
G01 X11.2724 Y9.2805
G01 X11.2422 Y9.2901
G01 X11.2126 Y9.3019
G01 X11.1965 Y9.3090
G01 X11.1807 Y9.3170
G01 X11.1528 Y9.3324
G01 X11.1380 Y9.3418
G01 X11.1119 Y9.3597
G01 X11.0870 Y9.3796
G01 X11.0737 Y9.3911
G01 X11.0610 Y9.4031
G01 X11.0386 Y9.4261
G01 X11.0182 Y9.4503
G01 X11.0074 Y9.4642
G01 X10.9972 Y9.4787
G01 X10.9893 Y9.4904
G01 X10.9900 Y9.4909
G01 X10.9800 Y9.5052
G01 X10.9712 Y9.5207
G01 X10.9567 Y9.5488
G01 X10.9472 Y9.5704
G01 X10.9411 Y9.5556
G01 X10.9348 Y9.5423
G01 X10.9185 Y9.5117
G01 X10.9109 Y9.4991
G01 X10.8916 Y9.4703
G01 X10.8828 Y9.4584
G01 X10.8609 Y9.4316
G01 X10.8510 Y9.4207
G01 X10.8264 Y9.3962
G01 X10.8155 Y9.3863
G01 X10.8151 Y9.3868
G01 X10.7887 Y9.3643
G01 X10.7746 Y9.3538
G01 X10.7481 Y9.3363
G01 X10.7354 Y9.3287
G01 X10.7049 Y9.3124
G01 X10.6916 Y9.3061
G01 X10.6595 Y9.2928
G01 X10.6457 Y9.2878
G01 X10.6455 Y9.2882
G01 X10.6125 Y9.2778
G01 X10.5982 Y9.2742
G01 X10.5642 Y9.2674
G01 X10.5496 Y9.2653
G01 X10.5151 Y9.2619
G01 X10.5004 Y9.2612
G01 X10.4657 Y9.2612
G01 X10.4510 Y9.2619
G01 X10.4511 Y9.2625
G01 X10.4165 Y9.2653
G01 X10.4020 Y9.2674
G01 X10.3680 Y9.2742
G01 X10.3537 Y9.2778
G01 X10.3205 Y9.2878
G01 X10.3066 Y9.2928
G01 X10.2746 Y9.3061
G01 X10.2613 Y9.3124
G01 X10.2307 Y9.3287
G01 X10.2181 Y9.3363
G01 X10.1893 Y9.3555
G01 X10.1774 Y9.3643
G01 X10.1506 Y9.3863
G01 X10.1397 Y9.3962
G01 X10.1259 Y9.4100
G01 X10.1122 Y9.3962
G01 X10.1013 Y9.3863
G01 X10.1008 Y9.3868
G01 X10.0745 Y9.3643
G01 X10.0603 Y9.3538
G01 X10.0338 Y9.3363
G01 X10.0212 Y9.3287
G01 X9.9906 Y9.3124
G01 X9.9773 Y9.3061
G01 X9.9452 Y9.2928
G01 X9.9314 Y9.2878
G01 X9.9312 Y9.2882
G01 X9.8982 Y9.2778
G01 X9.8839 Y9.2742
G01 X9.8499 Y9.2674
G01 X9.8353 Y9.2653
G01 X9.8008 Y9.2619
G01 X9.7861 Y9.2612
G01 X9.7515 Y9.2612
G01 X9.7368 Y9.2619
G01 X9.7368 Y9.2625
G01 X9.7023 Y9.2653
G01 X9.6819 Y9.2683
G01 X9.6537 Y9.2742
G01 X9.6394 Y9.2778
G01 X9.6062 Y9.2878
G01 X9.5923 Y9.2928
G01 X9.5603 Y9.3061
G01 X9.5470 Y9.3124
G01 X9.5164 Y9.3287
G01 X9.5038 Y9.3363
G01 X9.4750 Y9.3555
G01 X9.4631 Y9.3643
G01 X9.4471 Y9.3775
G01 X9.4316 Y9.3643
G01 X9.4174 Y9.3538
G01 X9.3909 Y9.3363
G01 X9.3783 Y9.3287
G01 X9.3477 Y9.3124
G01 X9.3344 Y9.3061
G01 X9.3024 Y9.2928
G01 X9.2885 Y9.2878
G01 X9.2884 Y9.2882
G01 X9.2553 Y9.2778
G01 X9.2411 Y9.2742
G01 X9.2071 Y9.2674
G01 X9.1925 Y9.2653
G01 X9.1580 Y9.2619
G01 X9.1433 Y9.2612
G01 X9.1086 Y9.2612
G01 X9.0939 Y9.2619
G01 X9.0939 Y9.2625
G01 X9.0594 Y9.2653
G01 X9.0391 Y9.2683
G01 X9.0108 Y9.2742
G01 X8.9965 Y9.2778
G01 X8.9634 Y9.2878
G01 X8.9495 Y9.2928
G01 X8.9175 Y9.3061
G01 X8.9041 Y9.3124
G01 X8.8736 Y9.3287
G01 X8.8609 Y9.3363
G01 X8.8321 Y9.3555
G01 X8.8203 Y9.3643
G01 X8.7935 Y9.3863
G01 X8.7826 Y9.3962
G01 X8.7581 Y9.4207
G01 X8.7482 Y9.4316
G01 X8.7487 Y9.4321
G01 X8.7262 Y9.4584
G01 X8.7157 Y9.4726
G01 X8.6981 Y9.4991
G01 X8.6906 Y9.5117
G01 X8.6788 Y9.5337
G01 X8.6213 Y9.4762
G01 X8.6020 Y9.4584
G01 X8.6013 Y9.4577
G01 X8.6010 Y9.4581
G01 X8.5812 Y9.4408
G01 X8.5626 Y9.4270
G01 X8.5622 Y9.4275
G01 X8.5501 Y9.4182
G01 X8.5410 Y9.4121
G01 X8.5408 Y9.4124
G01 X8.5221 Y9.4007
G01 X8.5018 Y9.3894
G01 X8.3956 Y9.3361
G00 Z2.0000
G00 X8.7962 Y9.2139
G01 F60.00
G01 Z-0.1000
G01 F120.00
G01 X8.8152 Y9.1852
G01 X8.8227 Y9.1726
G01 X8.8455 Y9.1301
G01 X8.8518 Y9.1168
G01 X8.8702 Y9.0722
G01 X8.8752 Y9.0583
G01 X8.8747 Y9.0581
G01 X8.8892 Y9.0122
G01 X8.8928 Y8.9979
G01 X8.9008 Y8.9575
G01 X8.9329 Y8.9460
G01 X8.9650 Y8.9322
G01 X8.9843 Y8.9230
G01 X9.1390 Y8.8455
G01 X9.1672 Y8.8297
G01 X9.1932 Y8.8134
G01 X9.2000 Y8.8089
G01 X9.1998 Y8.8085
G01 X9.2198 Y8.7950
G01 X9.2250 Y8.7911
G01 X9.2246 Y8.7905
G01 X9.2331 Y8.7843
G01 X9.2520 Y8.7989
G01 X9.2658 Y8.8086
G01 X9.3049 Y8.8331
G01 X9.3177 Y8.8403
G01 X9.3390 Y8.8516
G01 X9.4819 Y8.9230
G01 X9.5037 Y8.9333
G01 X9.5333 Y8.9460
G01 X9.5622 Y8.9565
G01 X9.5673 Y8.9581
G01 X9.5675 Y8.9576
G01 X9.5929 Y8.9662
G01 X9.6201 Y8.9732
G01 X9.6502 Y8.9797
G01 X9.6820 Y8.9847
G01 X9.7126 Y8.9883
G01 X9.7447 Y8.9902
G01 X9.7688 Y8.9908
G01 X10.0545 Y8.9908
G01 X10.0786 Y8.9902
G01 X10.1107 Y8.9883
G01 X10.1413 Y8.9847
G01 X10.1466 Y8.9839
G01 X10.1465 Y8.9832
G01 X10.1731 Y8.9797
G01 X10.2084 Y8.9719
G01 X10.2081 Y8.9709
G01 X10.2304 Y8.9662
G01 X10.2343 Y8.9650
G01 X10.2637 Y8.9556
G01 X10.2900 Y8.9460
G01 X10.3196 Y8.9333
G01 X10.3414 Y8.9230
G01 X10.4843 Y8.8516
G01 X10.4841 Y8.8513
G01 X10.5034 Y8.8416
G01 X10.5300 Y8.8263
G01 X10.5504 Y8.8134
G01 X10.5572 Y8.8089
G01 X10.5569 Y8.8085
G01 X10.5769 Y8.7950
G01 X10.5822 Y8.7911
G01 X10.5818 Y8.7905
G01 X10.5899 Y8.7846
G01 X10.6035 Y8.7950
G01 X10.6301 Y8.8134
G01 X10.6303 Y8.8131
G01 X10.6504 Y8.8263
G01 X10.6561 Y8.8297
G01 X10.6564 Y8.8292
G01 X10.6771 Y8.8416
G01 X10.6962 Y8.8516
G01 X10.8390 Y8.9230
G01 X10.8584 Y8.9322
G01 X10.8904 Y8.9460
G01 X10.9168 Y8.9556
G01 X10.9244 Y8.9581
G01 X10.9246 Y8.9576
G01 X10.9461 Y8.9650
G01 X10.9772 Y8.9732
G01 X11.0114 Y8.9804
G01 X11.0418 Y8.9851
G01 X11.0697 Y8.9883
G01 X11.1046 Y8.9903
G01 X11.1259 Y8.9908
G01 X11.3402 Y8.9908
G01 X11.3697 Y8.9899
G01 X11.3696 Y8.9896
G01 X11.3964 Y8.9883
G01 X11.4191 Y8.9857
G01 X11.4323 Y8.9839
G01 X11.4322 Y8.9832
G01 X11.4588 Y8.9797
G01 X11.4889 Y8.9732
G01 X11.4941 Y8.9719
G01 X11.4939 Y8.9709
G01 X11.5161 Y8.9662
G01 X11.5468 Y8.9565
G01 X11.5639 Y8.9502
G01 X11.5649 Y8.9565
G01 X11.5734 Y8.9979
G01 X11.5770 Y9.0122
G01 X11.5910 Y9.0583
G01 X11.5959 Y9.0722
G01 X11.6144 Y9.1168
G01 X11.6207 Y9.1301
G01 X11.6392 Y9.1647
G01 X11.6277 Y9.1600
G01 X11.5912 Y9.1483
G01 X11.5676 Y9.1417
G01 X11.5436 Y9.1364
G01 X11.5057 Y9.1294
G01 X11.4815 Y9.1264
G01 X11.4432 Y9.1233
G01 X11.4044 Y9.1227
G01 X11.3801 Y9.1233
G01 X11.3557 Y9.1251
G01 X11.3418 Y9.1264
G01 X11.3419 Y9.1270
G01 X11.3174 Y9.1295
G01 X11.2797 Y9.1364
G01 X11.2799 Y9.1373
G01 X11.2558 Y9.1417
G01 X11.2188 Y9.1523
G01 X11.1954 Y9.1600
G01 X11.1726 Y9.1688
G01 X11.1373 Y9.1841
G01 X11.1031 Y9.2017
G01 X11.0819 Y9.2137
G01 X11.0495 Y9.2346
G01 X11.0294 Y9.2488
G01 X11.0101 Y9.2638
G01 X10.9807 Y9.2888
G01 X10.9632 Y9.3054
G01 X10.9472 Y9.3217
G01 X10.9193 Y9.2938
G01 X10.9084 Y9.2839
G01 X10.9077 Y9.2846
G01 X10.8711 Y9.2533
G01 X10.8560 Y9.2421
G01 X10.8192 Y9.2177
G01 X10.8065 Y9.2101
G01 X10.7640 Y9.1874
G01 X10.7507 Y9.1811
G01 X10.7061 Y9.1626
G01 X10.6922 Y9.1577
G01 X10.6920 Y9.1582
G01 X10.6461 Y9.1437
G01 X10.6318 Y9.1401
G01 X10.5845 Y9.1307
G01 X10.5699 Y9.1285
G01 X10.5219 Y9.1238
G01 X10.5072 Y9.1231
G01 X10.4590 Y9.1231
G01 X10.4443 Y9.1238
G01 X10.4443 Y9.1246
G01 X10.3963 Y9.1285
G01 X10.3737 Y9.1320
G01 X10.3344 Y9.1401
G01 X10.3201 Y9.1437
G01 X10.2739 Y9.1577
G01 X10.2601 Y9.1626
G01 X10.2155 Y9.1811
G01 X10.2022 Y9.1874
G01 X10.1596 Y9.2101
G01 X10.1470 Y9.2177
G01 X10.1260 Y9.2317
G01 X10.1049 Y9.2177
G01 X10.0922 Y9.2101
G01 X10.0497 Y9.1874
G01 X10.0364 Y9.1811
G01 X9.9918 Y9.1626
G01 X9.9779 Y9.1577
G01 X9.9778 Y9.1582
G01 X9.9318 Y9.1437
G01 X9.9175 Y9.1401
G01 X9.8702 Y9.1307
G01 X9.8556 Y9.1285
G01 X9.8076 Y9.1238
G01 X9.7929 Y9.1231
G01 X9.7447 Y9.1231
G01 X9.7300 Y9.1238
G01 X9.7300 Y9.1246
G01 X9.6820 Y9.1285
G01 X9.6674 Y9.1307
G01 X9.6674 Y9.1310
G01 X9.6594 Y9.1320
G01 X9.6201 Y9.1401
G01 X9.6058 Y9.1437
G01 X9.5596 Y9.1577
G01 X9.5458 Y9.1626
G01 X9.5012 Y9.1811
G01 X9.4879 Y9.1874
G01 X9.4474 Y9.2091
G01 X9.4068 Y9.1874
G01 X9.3935 Y9.1811
G01 X9.3490 Y9.1626
G01 X9.3351 Y9.1577
G01 X9.3349 Y9.1582
G01 X9.2889 Y9.1437
G01 X9.2746 Y9.1401
G01 X9.2273 Y9.1307
G01 X9.2128 Y9.1285
G01 X9.1648 Y9.1238
G01 X9.1501 Y9.1231
G01 X9.1018 Y9.1231
G01 X9.0871 Y9.1238
G01 X9.0872 Y9.1246
G01 X9.0391 Y9.1285
G01 X9.0165 Y9.1320
G01 X8.9772 Y9.1401
G01 X8.9629 Y9.1437
G01 X8.9168 Y9.1577
G01 X8.9029 Y9.1626
G01 X8.8584 Y9.1811
G01 X8.8450 Y9.1874
G01 X8.8025 Y9.2101
G01 X8.7962 Y9.2139
G00 Z2.0000
G00 X9.1683 Y8.9856
G01 F60.00
G01 Z-0.1000
G01 F120.00
G01 X9.1890 Y8.9752
G01 X9.1888 Y8.9748
G01 X9.2042 Y8.9674
G01 X9.2333 Y8.9511
G01 X9.2499 Y8.9608
G01 X9.2772 Y8.9752
G01 X9.3820 Y9.0276
G01 X9.3817 Y9.0275
G01 X9.3814 Y9.0282
G01 X9.3225 Y9.0096
G01 X9.3082 Y9.0060
G01 X9.2476 Y8.9940
G01 X9.2331 Y8.9918
G01 X9.1683 Y8.9856
G00 Z2.0000
G00 X9.2768 Y7.9673
G01 F60.00
G01 Z-0.1000
G01 F120.00
G01 X9.3043 Y8.0218
G01 X9.3142 Y8.0390
G01 X9.3221 Y8.0514
G01 X9.3305 Y8.0635
G01 X9.3222 Y8.0752
G01 X9.3115 Y8.0923
G01 X9.3043 Y8.1051
G01 X9.2949 Y8.1240
G01 X9.2890 Y8.1375
G01 X9.2814 Y8.1572
G01 X9.2768 Y8.1712
G01 X9.2733 Y8.1841
G01 X9.2756 Y8.1637
G01 X9.2768 Y8.1349
G01 X9.2768 Y7.9673
G00 Z2.0000
G00 X9.3276 Y7.7063
G01 F60.00
G01 Z-0.1000
G01 F120.00
G01 X9.3276 Y7.5635
G01 X9.3285 Y7.5450
G01 X9.3303 Y7.5290
G01 X9.3328 Y7.5155
G01 X9.3368 Y7.4999
G01 X9.3441 Y7.4789
G01 X9.3516 Y7.4620
G01 X9.4230 Y7.3191
G01 X9.4304 Y7.3057
G01 X9.4387 Y7.2926
G01 X9.4491 Y7.2786
G01 X9.4571 Y7.2692
G01 X9.4630 Y7.2628
G01 X9.4745 Y7.2517
G01 X9.4839 Y7.2438
G01 X9.4979 Y7.2334
G01 X9.5104 Y7.2254
G01 X9.5245 Y7.2177
G01 X9.6673 Y7.1462
G01 X9.6785 Y7.1411
G01 X9.6913 Y7.1360
G01 X9.7119 Y7.1296
G01 X9.7329 Y7.1252
G01 X9.7503 Y7.1231
G01 X9.7688 Y7.1223
G01 X10.1259 Y7.1223
G01 X10.1444 Y7.1231
G01 X10.1604 Y7.1250
G01 X10.1739 Y7.1275
G01 X10.1822 Y7.1294
G01 X10.1974 Y7.1340
G01 X10.2066 Y7.1311
G01 X10.2209 Y7.1275
G01 X10.2270 Y7.1262
G01 X10.2428 Y7.1239
G01 X10.2650 Y7.1224
G01 X10.2873 Y7.1231
G01 X10.3093 Y7.1260
G01 X10.3167 Y7.1275
G01 X10.3382 Y7.1332
G01 X10.3591 Y7.1411
G01 X10.3724 Y7.1474
G01 X10.3917 Y7.1585
G01 X10.3974 Y7.1623
G01 X10.4098 Y7.1715
G01 X10.4156 Y7.1763
G01 X10.4318 Y7.1915
G01 X10.4465 Y7.2082
G01 X10.4595 Y7.2263
G01 X10.4670 Y7.2389
G01 X10.4769 Y7.2589
G01 X10.4847 Y7.2797
G01 X10.4905 Y7.3012
G01 X10.4918 Y7.3077
G01 X10.4941 Y7.3232
G01 X10.4949 Y7.3307
G01 X10.4957 Y7.3492
G01 X10.4957 Y8.1349
G01 X10.4947 Y8.1547
G01 X10.4917 Y8.1768
G01 X10.4865 Y8.1984
G01 X10.4793 Y8.2195
G01 X10.4717 Y8.2363
G01 X10.4003 Y8.3792
G01 X10.3929 Y8.3927
G01 X10.3875 Y8.4015
G01 X10.3803 Y8.4119
G01 X10.3712 Y8.4235
G01 X10.3603 Y8.4355
G01 X10.3506 Y8.4450
G01 X10.3394 Y8.4546
G01 X10.3315 Y8.4606
G01 X10.3214 Y8.4677
G01 X10.3064 Y8.4766
G01 X10.1560 Y8.5521
G01 X10.1448 Y8.5572
G01 X10.1320 Y8.5623
G01 X10.1114 Y8.5688
G01 X10.0904 Y8.5732
G01 X10.0730 Y8.5752
G01 X10.0545 Y8.5760
G01 X9.7688 Y8.5760
G01 X9.7490 Y8.5751
G01 X9.7269 Y8.5721
G01 X9.7125 Y8.5689
G01 X9.6994 Y8.5651
G01 X9.6855 Y8.5601
G01 X9.6707 Y8.5537
G01 X9.5245 Y8.4807
G01 X9.5083 Y8.4717
G01 X9.5022 Y8.4679
G01 X9.4839 Y8.4546
G01 X9.4681 Y8.4407
G01 X9.4571 Y8.4292
G01 X9.4521 Y8.4235
G01 X9.4387 Y8.4057
G01 X9.4308 Y8.3933
G01 X9.4204 Y8.3736
G01 X9.4120 Y8.3530
G01 X9.4096 Y8.3459
G01 X9.4041 Y8.3253
G01 X9.4014 Y8.3098
G01 X9.4005 Y8.3024
G01 X9.3991 Y8.2818
G01 X9.3995 Y8.2654
G01 X9.4000 Y8.2579
G01 X9.4030 Y8.2359
G01 X9.4062 Y8.2215
G01 X9.4128 Y8.2002
G01 X9.4214 Y8.1797
G01 X9.4248 Y8.1730
G01 X9.4358 Y8.1540
G01 X9.4445 Y8.1417
G01 X9.4491 Y8.1357
G01 X9.4630 Y8.1199
G01 X9.4745 Y8.1089
G01 X9.4918 Y8.0949
G01 X9.5104 Y8.0826
G01 X9.5169 Y8.0789
G01 X9.5300 Y8.0722
G01 X9.5491 Y8.0644
G01 X9.5245 Y8.0521
G01 X9.5110 Y8.0447
G01 X9.4979 Y8.0364
G01 X9.4899 Y8.0306
G01 X9.4802 Y8.0230
G01 X9.4681 Y8.0121
G01 X9.4587 Y8.0024
G01 X9.4521 Y7.9949
G01 X9.4431 Y7.9833
G01 X9.4320 Y7.9668
G01 X9.4230 Y7.9506
G01 X9.3516 Y7.8078
G01 X9.3441 Y7.7909
G01 X9.3368 Y7.7698
G01 X9.3349 Y7.7632
G01 X9.3315 Y7.7478
G01 X9.3286 Y7.7261
G01 X9.3276 Y7.7063
G00 Z2.0000
G00 X9.7814 Y7.6528
G01 F60.00
G01 Z-0.1000
G01 F120.00
G01 X9.7814 Y7.6170
G01 X9.7950 Y7.5897
G01 X9.8224 Y7.5760
G01 X10.0419 Y7.5760
G01 X10.0419 Y7.6937
G01 X9.8224 Y7.6937
G01 X9.7950 Y7.6801
G01 X9.7814 Y7.6528
G00 Z2.0000
G00 X10.6339 Y7.6573
G01 F60.00
G01 Z-0.1000
G01 F120.00
G01 X10.6395 Y7.6638
G01 X10.6540 Y7.6791
G01 X10.6646 Y7.6893
G01 X10.6866 Y7.7080
G01 X10.6794 Y7.7181
G01 X10.6702 Y7.7326
G01 X10.6615 Y7.7480
G01 X10.6339 Y7.8025
G01 X10.6339 Y7.6573
G00 Z2.0000
G00 X10.6848 Y8.1349
G01 F60.00
G01 Z-0.1000
G01 F120.00
G01 X10.6848 Y8.0635
G01 X10.6852 Y8.0511
G01 X10.6863 Y8.0375
G01 X10.6885 Y8.0229
G01 X10.6919 Y8.0072
G01 X10.6957 Y7.9940
G01 X10.7007 Y7.9802
G01 X10.7087 Y7.9620
G01 X10.7802 Y7.8191
G01 X10.7875 Y7.8057
G01 X10.7958 Y7.7926
G01 X10.8016 Y7.7845
G01 X10.8093 Y7.7749
G01 X10.8201 Y7.7628
G01 X10.8299 Y7.7533
G01 X10.8373 Y7.7468
G01 X10.8470 Y7.7391
G01 X10.8591 Y7.7307
G01 X10.8675 Y7.7254
G01 X10.8816 Y7.7177
G01 X11.0245 Y7.6462
G01 X11.0414 Y7.6387
G01 X11.0565 Y7.6332
G01 X11.0691 Y7.6296
G01 X11.0841 Y7.6262
G01 X11.1000 Y7.6239
G01 X11.1136 Y7.6227
G01 X11.1259 Y7.6223
G01 X11.2867 Y7.6223
G01 X11.3138 Y7.6087
G01 X11.3186 Y7.5990
G01 X11.3140 Y7.5897
G01 X11.2867 Y7.5760
G01 X11.1081 Y7.5760
G01 X11.0131 Y7.6235
G01 X10.9962 Y7.6311
G01 X10.9752 Y7.6383
G01 X10.9679 Y7.6403
G01 X10.9476 Y7.6446
G01 X10.9315 Y7.6465
G01 X10.9240 Y7.6471
G01 X10.9076 Y7.6474
G01 X10.8870 Y7.6461
G01 X10.8650 Y7.6426
G01 X10.8577 Y7.6409
G01 X10.8435 Y7.6369
G01 X10.8226 Y7.6292
G01 X10.8158 Y7.6261
G01 X10.7967 Y7.6162
G01 X10.7836 Y7.6078
G01 X10.7775 Y7.6035
G01 X10.7602 Y7.5895
G01 X10.7444 Y7.5738
G01 X10.7348 Y7.5626
G01 X10.7217 Y7.5446
G01 X10.7105 Y7.5254
G01 X10.7012 Y7.5052
G01 X10.6985 Y7.4981
G01 X10.6919 Y7.4769
G01 X10.6877 Y7.4565
G01 X10.6857 Y7.4404
G01 X10.6852 Y7.4329
G01 X10.6848 Y7.4165
G01 X10.6862 Y7.3960
G01 X10.6871 Y7.3885
G01 X10.6897 Y7.3740
G01 X10.6953 Y7.3525
G01 X10.7030 Y7.3316
G01 X10.7061 Y7.3247
G01 X10.7161 Y7.3057
G01 X10.7244 Y7.2926
G01 X10.7288 Y7.2864
G01 X10.7428 Y7.2692
G01 X10.7585 Y7.2533
G01 X10.7696 Y7.2438
G01 X10.7877 Y7.2307
G01 X10.7940 Y7.2267
G01 X10.8102 Y7.2177
G01 X10.9565 Y7.1446
G01 X10.9712 Y7.1382
G01 X10.9851 Y7.1332
G01 X10.9977 Y7.1296
G01 X11.0066 Y7.1275
G01 X11.0186 Y7.1252
G01 X11.0285 Y7.1239
G01 X11.0422 Y7.1227
G01 X11.0545 Y7.1223
G01 X11.3402 Y7.1223
G01 X11.3525 Y7.1227
G01 X11.3662 Y7.1239
G01 X11.3808 Y7.1260
G01 X11.3965 Y7.1294
G01 X11.4097 Y7.1332
G01 X11.4178 Y7.1360
G01 X11.4305 Y7.1411
G01 X11.4417 Y7.1462
G01 X11.5845 Y7.2177
G01 X11.5980 Y7.2250
G01 X11.6111 Y7.2334
G01 X11.6251 Y7.2438
G01 X11.6409 Y7.2576
G01 X11.6519 Y7.2692
G01 X11.6599 Y7.2786
G01 X11.6703 Y7.2926
G01 X11.6782 Y7.3050
G01 X11.6860 Y7.3191
G01 X11.7574 Y7.4620
G01 X11.7655 Y7.4802
G01 X11.7726 Y7.5012
G01 X11.7762 Y7.5155
G01 X11.7785 Y7.5275
G01 X11.7806 Y7.5450
G01 X11.7814 Y7.5635
G01 X11.7814 Y7.6349
G01 X11.7810 Y7.6472
G01 X11.7798 Y7.6609
G01 X11.7787 Y7.6693
G01 X11.7762 Y7.6828
G01 X11.7726 Y7.6971
G01 X11.7655 Y7.7182
G01 X11.7574 Y7.7363
G01 X11.6860 Y7.8792
G01 X11.6770 Y7.8954
G01 X11.6660 Y7.9119
G01 X11.6569 Y7.9235
G01 X11.6461 Y7.9355
G01 X11.6345 Y7.9466
G01 X11.6191 Y7.9592
G01 X11.6071 Y7.9677
G01 X11.5921 Y7.9766
G01 X11.4417 Y8.0521
G01 X11.4307 Y8.0572
G01 X11.4472 Y8.0538
G01 X11.4632 Y8.0518
G01 X11.4708 Y8.0513
G01 X11.4872 Y8.0509
G01 X11.5077 Y8.0523
G01 X11.5297 Y8.0558
G01 X11.5370 Y8.0574
G01 X11.5584 Y8.0638
G01 X11.5790 Y8.0722
G01 X11.5980 Y8.0822
G01 X11.6111 Y8.0905
G01 X11.6172 Y8.0949
G01 X11.6345 Y8.1089
G01 X11.6452 Y8.1191
G01 X11.6503 Y8.1245
G01 X11.6645 Y8.1417
G01 X11.6730 Y8.1537
G01 X11.6842 Y8.1730
G01 X11.6935 Y8.1932
G01 X11.6962 Y8.2002
G01 X11.7027 Y8.2209
G01 X11.7071 Y8.2418
G01 X11.7090 Y8.2579
G01 X11.7096 Y8.2654
G01 X11.7099 Y8.2818
G01 X11.7086 Y8.3024
G01 X11.7051 Y8.3243
G01 X11.7034 Y8.3317
G01 X11.6970 Y8.3530
G01 X11.6886 Y8.3736
G01 X11.6787 Y8.3927
G01 X11.6703 Y8.4057
G01 X11.6569 Y8.4235
G01 X11.6418 Y8.4398
G01 X11.6363 Y8.4450
G01 X11.6251 Y8.4546
G01 X11.6071 Y8.4677
G01 X11.6007 Y8.4717
G01 X11.5845 Y8.4807
G01 X11.4417 Y8.5521
G01 X11.4305 Y8.5572
G01 X11.4178 Y8.5623
G01 X11.4097 Y8.5651
G01 X11.3971 Y8.5688
G01 X11.3820 Y8.5721
G01 X11.3601 Y8.5751
G01 X11.3402 Y8.5760
G01 X11.1259 Y8.5760
G01 X11.1075 Y8.5752
G01 X11.0915 Y8.5734
G01 X11.0780 Y8.5709
G01 X11.0697 Y8.5689
G01 X11.0565 Y8.5651
G01 X11.0414 Y8.5596
G01 X11.0245 Y8.5521
G01 X10.8816 Y8.4807
G01 X10.8682 Y8.4733
G01 X10.8551 Y8.4650
G01 X10.8470 Y8.4592
G01 X10.8373 Y8.4515
G01 X10.8253 Y8.4407
G01 X10.8158 Y8.4309
G01 X10.8093 Y8.4235
G01 X10.8016 Y8.4138
G01 X10.7932 Y8.4017
G01 X10.7879 Y8.3933
G01 X10.7819 Y8.3825
G01 X10.7087 Y8.2363
G01 X10.7036 Y8.2252
G01 X10.6985 Y8.2124
G01 X10.6957 Y8.2043
G01 X10.6921 Y8.1917
G01 X10.6900 Y8.1828
G01 X10.6877 Y8.1708
G01 X10.6863 Y8.1609
G01 X10.6852 Y8.1472
G01 X10.6848 Y8.1349
G00 Z2.0000
G00 X11.3932 Y8.0696
G01 F60.00
G01 Z-0.1000
G01 F120.00
G01 X11.3816 Y8.0748
G01 X11.2867 Y8.1223
G01 X11.1795 Y8.1223
G01 X11.1522 Y8.1086
G01 X11.1475 Y8.0993
G01 X11.1523 Y8.0896
G01 X11.1795 Y8.0760
G01 X11.3440 Y8.0760
G01 X11.3525 Y8.0757
G01 X11.3662 Y8.0745
G01 X11.3820 Y8.0721
G01 X11.3932 Y8.0696
G00 Z2.0000
G00 X11.8323 Y8.1714
G01 F60.00
G01 Z-0.1000
G01 F120.00
G01 X11.8276 Y8.1572
G01 X11.8201 Y8.1375
G01 X11.8141 Y8.1240
G01 X11.8047 Y8.1051
G01 X11.7975 Y8.0923
G01 X11.7862 Y8.0744
G01 X11.7778 Y8.0624
G01 X11.7648 Y8.0457
G01 X11.7553 Y8.0345
G01 X11.7489 Y8.0278
G01 X11.7648 Y8.0098
G01 X11.7747 Y7.9972
G01 X11.7868 Y7.9803
G01 X11.7948 Y7.9676
G01 X11.8097 Y7.9410
G01 X11.8323 Y7.8958
G01 X11.8323 Y8.1714
G00 Z2.0000
G00 X11.9705 Y8.8492
G01 F60.00
G01 Z-0.1000
G01 F120.00
G01 X11.9705 Y7.3492
G01 X11.9713 Y7.3307
G01 X11.9720 Y7.3232
G01 X11.9757 Y7.3012
G01 X11.9793 Y7.2869
G01 X11.9864 Y7.2659
G01 X11.9956 Y7.2456
G01 X12.0067 Y7.2263
G01 X12.0105 Y7.2206
G01 X12.0197 Y7.2082
G01 X12.0343 Y7.1915
G01 X12.0506 Y7.1763
G01 X12.0682 Y7.1627
G01 X12.0871 Y7.1509
G01 X12.1071 Y7.1411
G01 X12.1279 Y7.1332
G01 X12.1494 Y7.1275
G01 X12.1568 Y7.1260
G01 X12.1789 Y7.1231
G01 X12.2011 Y7.1224
G01 X12.2233 Y7.1239
G01 X12.2453 Y7.1275
G01 X12.2668 Y7.1332
G01 X12.2876 Y7.1411
G01 X12.3076 Y7.1509
G01 X12.3260 Y7.1623
G01 X12.3383 Y7.1715
G01 X12.3551 Y7.1861
G01 X12.3703 Y7.2024
G01 X12.3838 Y7.2200
G01 X12.3956 Y7.2389
G01 X12.4054 Y7.2589
G01 X12.4133 Y7.2797
G01 X12.4155 Y7.2869
G01 X12.4204 Y7.3077
G01 X12.4227 Y7.3232
G01 X12.4234 Y7.3307
G01 X12.4242 Y7.3492
G01 X12.4242 Y7.4305
G01 X12.5896 Y7.2101
G01 X12.6038 Y7.1935
G01 X12.6146 Y7.1828
G01 X12.6316 Y7.1685
G01 X12.6500 Y7.1560
G01 X12.6695 Y7.1452
G01 X12.6900 Y7.1365
G01 X12.6971 Y7.1340
G01 X12.7177 Y7.1282
G01 X12.7330 Y7.1252
G01 X12.7405 Y7.1241
G01 X12.7622 Y7.1224
G01 X12.7849 Y7.1229
G01 X12.7996 Y7.1245
G01 X12.8214 Y7.1285
G01 X12.8428 Y7.1348
G01 X12.8635 Y7.1431
G01 X12.8703 Y7.1463
G01 X12.8895 Y7.1572
G01 X12.9079 Y7.1700
G01 X12.9245 Y7.1842
G01 X12.9351 Y7.1950
G01 X12.9494 Y7.2120
G01 X12.9620 Y7.2304
G01 X12.9659 Y7.2369
G01 X12.9759 Y7.2567
G01 X12.9840 Y7.2775
G01 X12.9898 Y7.2981
G01 X12.9928 Y7.3134
G01 X12.9952 Y7.3355
G01 X12.9955 Y7.3430
G01 X12.9950 Y7.3653
G01 X12.9924 Y7.3874
G01 X12.9875 Y7.4091
G01 X12.9806 Y7.4303
G01 X12.9717 Y7.4506
G01 X12.9608 Y7.4699
G01 X12.9525 Y7.4822
G01 X12.6398 Y7.8993
G01 X12.9292 Y8.1887
G01 X12.9417 Y8.2024
G01 X12.9465 Y8.2082
G01 X12.9553 Y8.2200
G01 X12.9670 Y8.2389
G01 X12.9769 Y8.2589
G01 X12.9847 Y8.2797
G01 X12.9869 Y8.2869
G01 X12.9920 Y8.3086
G01 X12.9941 Y8.3232
G01 X12.9956 Y8.3454
G01 X12.9949 Y8.3677
G01 X12.9920 Y8.3897
G01 X12.9905 Y8.3971
G01 X12.9869 Y8.4114
G01 X12.9798 Y8.4325
G01 X12.9706 Y8.4528
G01 X12.9595 Y8.4720
G01 X12.9556 Y8.4778
G01 X12.9465 Y8.4901
G01 X12.9318 Y8.5069
G01 X12.9265 Y8.5122
G01 X12.9098 Y8.5269
G01 X12.8917 Y8.5398
G01 X12.8790 Y8.5474
G01 X12.8591 Y8.5572
G01 X12.8382 Y8.5651
G01 X12.8310 Y8.5673
G01 X12.8106 Y8.5721
G01 X12.7948 Y8.5745
G01 X12.7726 Y8.5760
G01 X12.7650 Y8.5760
G01 X12.7428 Y8.5745
G01 X12.7209 Y8.5709
G01 X12.7066 Y8.5673
G01 X12.6855 Y8.5601
G01 X12.6652 Y8.5510
G01 X12.6586 Y8.5474
G01 X12.6402 Y8.5360
G01 X12.6220 Y8.5221
G01 X12.6084 Y8.5096
G01 X12.4242 Y8.3255
G01 X12.4242 Y8.8492
G01 X12.4234 Y8.8677
G01 X12.4205 Y8.8897
G01 X12.4155 Y8.9114
G01 X12.4083 Y8.9325
G01 X12.4054 Y8.9394
G01 X12.3991 Y8.9528
G01 X12.3880 Y8.9720
G01 X12.3842 Y8.9778
G01 X12.3751 Y8.9901
G01 X12.3703 Y8.9960
G01 X12.3551 Y9.0122
G01 X12.3442 Y9.0221
G01 X12.3383 Y9.0269
G01 X12.3202 Y9.0398
G01 X12.3076 Y9.0474
G01 X12.2876 Y9.0572
G01 X12.2668 Y9.0651
G01 X12.2596 Y9.0673
G01 X12.2392 Y9.0721
G01 X12.2233 Y9.0745
G01 X12.2011 Y9.0760
G01 X12.1936 Y9.0760
G01 X12.1714 Y9.0745
G01 X12.1494 Y9.0709
G01 X12.1351 Y9.0673
G01 X12.1141 Y9.0601
G01 X12.0938 Y9.0510
G01 X12.0871 Y9.0474
G01 X12.0688 Y9.0360
G01 X12.0564 Y9.0269
G01 X12.0397 Y9.0122
G01 X12.0343 Y9.0069
G01 X12.0245 Y8.9960
G01 X12.0109 Y8.9783
G01 X11.9991 Y8.9594
G01 X11.9956 Y8.9528
G01 X11.9893 Y8.9394
G01 X11.9814 Y8.9186
G01 X11.9793 Y8.9114
G01 X11.9744 Y8.8906
G01 X11.9720 Y8.8752
G01 X11.9713 Y8.8677
G01 X11.9705 Y8.8492
G00 Z2.0000
G00 X12.4867 Y9.2607
G01 F60.00
G01 Z-0.1000
G01 F120.00
G01 X12.5030 Y9.2489
G01 X12.5298 Y9.2269
G01 X12.5407 Y9.2171
G01 X12.5653 Y9.1925
G01 X12.5751 Y9.1816
G01 X12.5746 Y9.1812
G01 X12.5971 Y9.1548
G01 X12.6076 Y9.1407
G01 X12.6252 Y9.1142
G01 X12.6327 Y9.1015
G01 X12.6491 Y9.0710
G01 X12.6554 Y9.0576
G01 X12.6686 Y9.0256
G01 X12.6736 Y9.0118
G01 X12.6732 Y9.0116
G01 X12.6837 Y8.9786
G01 X12.6873 Y8.9643
G01 X12.6940 Y8.9303
G01 X12.6962 Y8.9157
G01 X12.6996 Y8.8812
G01 X12.7007 Y8.8478
G01 X12.7368 Y8.8514
G01 X12.7515 Y8.8521
G01 X12.7861 Y8.8521
G01 X12.8008 Y8.8514
G01 X12.8008 Y8.8508
G01 X12.8353 Y8.8480
G01 X12.8418 Y8.8470
G01 X12.8436 Y8.8589
G01 X12.8442 Y8.8588
G01 X12.8466 Y8.8760
G01 X12.8503 Y8.8929
G01 X12.8586 Y8.9239
G01 X12.8640 Y8.9403
G01 X12.8752 Y8.9704
G01 X12.8822 Y8.9862
G01 X12.8962 Y9.0149
G01 X12.9049 Y9.0301
G01 X12.9217 Y9.0574
G01 X12.9317 Y9.0716
G01 X12.9511 Y9.0970
G01 X12.9625 Y9.1102
G01 X12.9843 Y9.1337
G01 X13.0557 Y9.2051
G01 X13.0683 Y9.2171
G01 X13.0922 Y9.2382
G01 X13.1178 Y9.2577
G01 X13.1182 Y9.2571
G01 X13.1321 Y9.2677
G01 X13.1593 Y9.2845
G01 X13.1744 Y9.2931
G01 X13.1899 Y9.3009
G01 X13.2188 Y9.3141
G01 X13.2352 Y9.3205
G01 X13.2655 Y9.3308
G01 X13.2822 Y9.3355
G01 X13.3135 Y9.3429
G01 X13.3437 Y9.3478
G01 X13.3321 Y9.3555
G01 X13.3203 Y9.3643
G01 X13.2935 Y9.3863
G01 X13.2826 Y9.3962
G01 X13.2581 Y9.4207
G01 X13.2482 Y9.4316
G01 X13.2487 Y9.4321
G01 X13.2341 Y9.4492
G01 X13.2063 Y9.4276
G01 X13.1930 Y9.4182
G01 X13.1649 Y9.4007
G01 X13.1368 Y9.3853
G01 X12.9939 Y9.3139
G01 X12.9773 Y9.3061
G01 X12.9532 Y9.2957
G01 X12.9530 Y9.2960
G01 X12.9314 Y9.2878
G01 X12.9312 Y9.2883
G01 X12.9064 Y9.2799
G01 X12.8849 Y9.2744
G01 X12.8623 Y9.2695
G01 X12.8364 Y9.2654
G01 X12.8093 Y9.2624
G01 X12.7861 Y9.2612
G01 X12.7688 Y9.2607
G01 X12.4867 Y9.2607
G00 Z2.0000
G00 X12.7775 Y9.1227
G01 F60.00
G01 Z-0.1000
G01 F120.00
G01 X12.7803 Y9.1168
G01 X12.7866 Y9.1017
G01 X12.8000 Y9.1235
G01 X12.7775 Y9.1227
G00 Z2.0000
G00 X13.1848 Y8.3492
G01 F60.00
G01 Z-0.1000
G01 F120.00
G01 X13.1848 Y7.3492
G01 X13.1856 Y7.3307
G01 X13.1863 Y7.3232
G01 X13.1900 Y7.3012
G01 X13.1957 Y7.2797
G01 X13.2036 Y7.2589
G01 X13.2134 Y7.2389
G01 X13.2248 Y7.2206
G01 X13.2387 Y7.2024
G01 X13.2540 Y7.1861
G01 X13.2707 Y7.1715
G01 X13.2888 Y7.1585
G01 X13.3081 Y7.1474
G01 X13.3283 Y7.1382
G01 X13.3494 Y7.1311
G01 X13.3699 Y7.1262
G01 X13.3857 Y7.1239
G01 X13.3932 Y7.1231
G01 X13.4154 Y7.1224
G01 X13.4376 Y7.1239
G01 X13.4596 Y7.1275
G01 X13.4739 Y7.1311
G01 X13.4950 Y7.1382
G01 X13.5152 Y7.1474
G01 X13.5219 Y7.1509
G01 X13.5403 Y7.1623
G01 X13.5526 Y7.1715
G01 X13.5693 Y7.1861
G01 X13.5747 Y7.1915
G01 X13.5846 Y7.2024
G01 X13.5981 Y7.2200
G01 X13.6099 Y7.2389
G01 X13.6134 Y7.2456
G01 X13.6197 Y7.2589
G01 X13.6276 Y7.2797
G01 X13.6333 Y7.3012
G01 X13.6348 Y7.3086
G01 X13.6377 Y7.3307
G01 X13.6385 Y7.3492
G01 X13.6385 Y8.3492
G01 X13.6377 Y8.3677
G01 X13.6348 Y8.3897
G01 X13.6298 Y8.4114
G01 X13.6226 Y8.4325
G01 X13.6197 Y8.4394
G01 X13.6099 Y8.4594
G01 X13.5985 Y8.4778
G01 X13.5846 Y8.4960
G01 X13.5693 Y8.5122
G01 X13.5584 Y8.5221
G01 X13.5514 Y8.5277
G01 X13.5584 Y8.5334
G01 X13.5721 Y8.5459
G01 X13.6435 Y8.6173
G01 X13.6584 Y8.6338
G01 X13.6717 Y8.6517
G01 X13.6832 Y8.6708
G01 X13.6912 Y8.6875
G01 X13.6940 Y8.6944
G01 X13.7002 Y8.7119
G01 X13.7048 Y8.7298
G01 X13.7062 Y8.7372
G01 X13.7089 Y8.7555
G01 X13.7100 Y8.7777
G01 X13.7089 Y8.8000
G01 X13.7062 Y8.8183
G01 X13.7012 Y8.8400
G01 X13.6990 Y8.8472
G01 X13.6927 Y8.8646
G01 X13.6832 Y8.8847
G01 X13.6717 Y8.9038
G01 X13.6608 Y8.9187
G01 X13.6560 Y8.9245
G01 X13.6435 Y8.9382
G01 X13.5721 Y9.0096
G01 X13.5584 Y9.0221
G01 X13.5408 Y9.0356
G01 X13.5345 Y9.0398
G01 X13.5186 Y9.0493
G01 X13.5019 Y9.0572
G01 X13.4950 Y9.0601
G01 X13.4775 Y9.0663
G01 X13.4559 Y9.0717
G01 X13.4339 Y9.0750
G01 X13.4154 Y9.0760
G01 X13.4079 Y9.0760
G01 X13.3894 Y9.0750
G01 X13.3711 Y9.0723
G01 X13.3494 Y9.0673
G01 X13.3422 Y9.0651
G01 X13.3248 Y9.0588
G01 X13.3047 Y9.0493
G01 X13.2856 Y9.0378
G01 X13.2707 Y9.0269
G01 X13.2649 Y9.0221
G01 X13.2512 Y9.0096
G01 X13.1772 Y8.9354
G01 X13.1648 Y8.9217
G01 X13.1516 Y8.9038
G01 X13.1401 Y8.8847
G01 X13.1321 Y8.8680
G01 X13.1293 Y8.8610
G01 X13.1231 Y8.8436
G01 X13.1177 Y8.8220
G01 X13.1144 Y8.8000
G01 X13.1134 Y8.7777
G01 X13.1144 Y8.7555
G01 X13.1177 Y8.7335
G01 X13.1231 Y8.7119
G01 X13.1306 Y8.6909
G01 X13.1401 Y8.6708
G01 X13.1496 Y8.6549
G01 X13.1625 Y8.6368
G01 X13.1673 Y8.6310
G01 X13.1798 Y8.6173
G01 X13.2512 Y8.5459
G01 X13.2649 Y8.5334
G01 X13.2719 Y8.5277
G01 X13.2649 Y8.5221
G01 X13.2540 Y8.5122
G01 X13.2387 Y8.4960
G01 X13.2340 Y8.4901
G01 X13.2210 Y8.4720
G01 X13.2099 Y8.4528
G01 X13.2036 Y8.4394
G01 X13.1957 Y8.4186
G01 X13.1900 Y8.3971
G01 X13.1886 Y8.3906
G01 X13.1863 Y8.3752
G01 X13.1856 Y8.3677
G01 X13.1848 Y8.3492
G00 Z2.0000
G00 X13.8991 Y8.3492
G01 F60.00
G01 Z-0.1000
G01 F120.00
G01 X13.8992 Y7.3454
G01 X13.9006 Y7.3232
G01 X13.9043 Y7.3012
G01 X13.9078 Y7.2869
G01 X13.9150 Y7.2659
G01 X13.9242 Y7.2456
G01 X13.9277 Y7.2389
G01 X13.9391 Y7.2206
G01 X13.9530 Y7.2024
G01 X13.9682 Y7.1861
G01 X13.9850 Y7.1715
G01 X13.9968 Y7.1627
G01 X14.0157 Y7.1509
G01 X14.0357 Y7.1411
G01 X14.0565 Y7.1332
G01 X14.0637 Y7.1311
G01 X14.0841 Y7.1262
G01 X14.1000 Y7.1239
G01 X14.1075 Y7.1231
G01 X14.1297 Y7.1224
G01 X14.1444 Y7.1231
G01 X14.1665 Y7.1260
G01 X14.1739 Y7.1275
G01 X14.1954 Y7.1332
G01 X14.2162 Y7.1411
G01 X14.2295 Y7.1474
G01 X14.2488 Y7.1585
G01 X14.2546 Y7.1623
G01 X14.2669 Y7.1715
G01 X14.2727 Y7.1763
G01 X14.2890 Y7.1915
G01 X14.3036 Y7.2082
G01 X14.3124 Y7.2200
G01 X14.3242 Y7.2389
G01 X14.3340 Y7.2589
G01 X14.3419 Y7.2797
G01 X14.3441 Y7.2869
G01 X14.3491 Y7.3086
G01 X14.3513 Y7.3232
G01 X14.3527 Y7.3454
G01 X14.3528 Y8.1018
G01 X14.3938 Y8.1223
G01 X14.5010 Y8.1223
G01 X14.5283 Y8.1086
G01 X14.5419 Y8.0813
G01 X14.5419 Y7.3492
G01 X14.5427 Y7.3307
G01 X14.5435 Y7.3232
G01 X14.5471 Y7.3012
G01 X14.5529 Y7.2797
G01 X14.5607 Y7.2589
G01 X14.5706 Y7.2389
G01 X14.5820 Y7.2206
G01 X14.5911 Y7.2082
G01 X14.6058 Y7.1915
G01 X14.6220 Y7.1763
G01 X14.6278 Y7.1715
G01 X14.6459 Y7.1585
G01 X14.6652 Y7.1474
G01 X14.6785 Y7.1411
G01 X14.6994 Y7.1332
G01 X14.7209 Y7.1275
G01 X14.7283 Y7.1260
G01 X14.7503 Y7.1231
G01 X14.7726 Y7.1224
G01 X14.7873 Y7.1231
G01 X14.8093 Y7.1260
G01 X14.8310 Y7.1311
G01 X14.8521 Y7.1382
G01 X14.8724 Y7.1474
G01 X14.8790 Y7.1509
G01 X14.8974 Y7.1623
G01 X14.9156 Y7.1763
G01 X14.9318 Y7.1915
G01 X14.9465 Y7.2082
G01 X14.9595 Y7.2263
G01 X14.9706 Y7.2456
G01 X14.9798 Y7.2659
G01 X14.9869 Y7.2869
G01 X14.9918 Y7.3077
G01 X14.9941 Y7.3232
G01 X14.9949 Y7.3307
G01 X14.9957 Y7.3492
G01 X14.9957 Y8.1349
G01 X14.9953 Y8.1472
G01 X14.9941 Y8.1609
G01 X14.9930 Y8.1693
G01 X14.9905 Y8.1828
G01 X14.9885 Y8.1912
G01 X14.9847 Y8.2043
G01 X14.9819 Y8.2124
G01 X14.9769 Y8.2252
G01 X14.9717 Y8.2363
G01 X14.8985 Y8.3825
G01 X14.8929 Y8.3927
G01 X14.8875 Y8.4015
G01 X14.8803 Y8.4119
G01 X14.8712 Y8.4235
G01 X14.8646 Y8.4309
G01 X14.8560 Y8.4398
G01 X14.8488 Y8.4466
G01 X14.8394 Y8.4546
G01 X14.8315 Y8.4606
G01 X14.8214 Y8.4677
G01 X14.8064 Y8.4766
G01 X14.6560 Y8.5521
G01 X14.6448 Y8.5572
G01 X14.6320 Y8.5623
G01 X14.6239 Y8.5651
G01 X14.6114 Y8.5688
G01 X14.5963 Y8.5721
G01 X14.5743 Y8.5751
G01 X14.5545 Y8.5760
G01 X14.3402 Y8.5760
G01 X14.3279 Y8.5757
G01 X14.3142 Y8.5745
G01 X14.3058 Y8.5734
G01 X14.2923 Y8.5709
G01 X14.2780 Y8.5673
G01 X14.2627 Y8.5623
G01 X14.2557 Y8.5596
G01 X14.2329 Y8.5491
G01 X14.2162 Y8.5572
G01 X14.2092 Y8.5601
G01 X14.1954 Y8.5651
G01 X14.1739 Y8.5709
G01 X14.1665 Y8.5723
G01 X14.1444 Y8.5752
G01 X14.1222 Y8.5760
G01 X14.1075 Y8.5752
G01 X14.0854 Y8.5723
G01 X14.0637 Y8.5673
G01 X14.0426 Y8.5601
G01 X14.0224 Y8.5510
G01 X14.0031 Y8.5398
G01 X13.9973 Y8.5360
G01 X13.9850 Y8.5269
G01 X13.9682 Y8.5122
G01 X13.9629 Y8.5069
G01 X13.9482 Y8.4901
G01 X13.9353 Y8.4720
G01 X13.9242 Y8.4528
G01 X13.9150 Y8.4325
G01 X13.9078 Y8.4114
G01 X13.9029 Y8.3906
G01 X13.9006 Y8.3752
G01 X13.8999 Y8.3677
G01 X13.8991 Y8.3492
G00 Z2.0000
G00 X13.9542 Y9.2130
G01 F60.00
G01 Z-0.1000
G01 F120.00
G01 X13.9633 Y9.2030
G01 X13.9629 Y9.2027
G01 X13.9791 Y9.1847
G01 X13.9939 Y9.1657
G01 X14.0027 Y9.1539
G01 X14.0019 Y9.1533
G01 X14.0165 Y9.1342
G01 X14.0295 Y9.1138
G01 X14.0490 Y9.0800
G01 X14.0598 Y9.0586
G01 X14.0758 Y9.0234
G01 X14.0885 Y8.9895
G01 X14.1018 Y8.9902
G01 X14.1501 Y8.9902
G01 X14.1648 Y8.9895
G01 X14.1647 Y8.9887
G01 X14.2128 Y8.9847
G01 X14.2331 Y8.9816
G01 X14.2561 Y8.9851
G01 X14.2840 Y8.9883
G01 X14.3188 Y8.9903
G01 X14.3402 Y8.9908
G01 X14.5545 Y8.9908
G01 X14.5786 Y8.9902
G01 X14.6107 Y8.9883
G01 X14.6413 Y8.9847
G01 X14.6466 Y8.9839
G01 X14.6465 Y8.9832
G01 X14.6731 Y8.9797
G01 X14.7032 Y8.9732
G01 X14.7084 Y8.9719
G01 X14.7081 Y8.9709
G01 X14.7304 Y8.9662
G01 X14.7343 Y8.9650
G01 X14.7637 Y8.9556
G01 X14.7900 Y8.9460
G01 X14.8221 Y8.9322
G01 X14.8414 Y8.9230
G01 X14.9843 Y8.8516
G01 X14.9841 Y8.8513
G01 X15.0034 Y8.8416
G01 X15.0300 Y8.8263
G01 X15.0504 Y8.8134
G01 X15.0572 Y8.8089
G01 X15.0569 Y8.8085
G01 X15.0769 Y8.7950
G01 X15.0822 Y8.7911
G01 X15.0818 Y8.7905
G01 X15.0899 Y8.7846
G01 X15.1035 Y8.7950
G01 X15.1301 Y8.8134
G01 X15.1303 Y8.8131
G01 X15.1504 Y8.8263
G01 X15.1561 Y8.8297
G01 X15.1564 Y8.8292
G01 X15.1771 Y8.8416
G01 X15.1962 Y8.8516
G01 X15.3390 Y8.9230
G01 X15.3608 Y8.9333
G01 X15.3904 Y8.9460
G01 X15.4168 Y8.9556
G01 X15.4244 Y8.9581
G01 X15.4246 Y8.9576
G01 X15.4461 Y8.9650
G01 X15.4851 Y8.9749
G01 X15.5114 Y8.9804
G01 X15.5338 Y8.9839
G01 X15.5738 Y8.9886
G01 X15.6018 Y8.9902
G01 X15.6259 Y8.9908
G01 X15.8402 Y8.9908
G01 X15.8643 Y8.9902
G01 X15.8924 Y8.9886
G01 X15.9243 Y8.9851
G01 X15.9323 Y8.9839
G01 X15.9322 Y8.9832
G01 X15.9548 Y8.9804
G01 X15.9941 Y8.9719
G01 X15.9939 Y8.9709
G01 X16.0161 Y8.9662
G01 X16.0468 Y8.9565
G01 X16.0758 Y8.9460
G01 X16.0956 Y8.9375
G01 X16.1265 Y8.9992
G01 X16.1420 Y9.0274
G01 X16.1602 Y9.0572
G01 X16.1810 Y9.0868
G01 X16.1814 Y9.0865
G01 X16.1972 Y9.1081
G01 X16.2172 Y9.1316
G01 X16.2361 Y9.1523
G01 X16.3195 Y9.2357
G01 X16.2676 Y9.2617
G01 X16.2677 Y9.2620
G01 X16.2485 Y9.2717
G01 X16.2275 Y9.2835
G01 X16.2073 Y9.2961
G01 X16.1941 Y9.2839
G01 X16.1935 Y9.2846
G01 X16.1568 Y9.2533
G01 X16.1417 Y9.2421
G01 X16.1049 Y9.2177
G01 X16.0922 Y9.2101
G01 X16.0497 Y9.1874
G01 X16.0364 Y9.1811
G01 X15.9918 Y9.1626
G01 X15.9779 Y9.1577
G01 X15.9778 Y9.1582
G01 X15.9318 Y9.1437
G01 X15.9175 Y9.1401
G01 X15.8702 Y9.1307
G01 X15.8556 Y9.1285
G01 X15.8076 Y9.1238
G01 X15.7929 Y9.1231
G01 X15.7447 Y9.1231
G01 X15.7300 Y9.1238
G01 X15.7300 Y9.1246
G01 X15.6820 Y9.1285
G01 X15.6594 Y9.1320
G01 X15.6201 Y9.1401
G01 X15.6058 Y9.1437
G01 X15.5596 Y9.1577
G01 X15.5458 Y9.1626
G01 X15.5012 Y9.1811
G01 X15.4879 Y9.1874
G01 X15.4454 Y9.2101
G01 X15.4327 Y9.2177
G01 X15.3926 Y9.2445
G01 X15.3808 Y9.2533
G01 X15.3592 Y9.2710
G01 X15.3414 Y9.2617
G01 X15.1986 Y9.1902
G01 X15.1767 Y9.1800
G01 X15.1510 Y9.1688
G01 X15.1208 Y9.1577
G01 X15.1132 Y9.1551
G01 X15.1130 Y9.1557
G01 X15.0915 Y9.1482
G01 X15.0604 Y9.1401
G01 X15.0303 Y9.1336
G01 X14.9985 Y9.1285
G01 X14.9679 Y9.1250
G01 X14.9330 Y9.1230
G01 X14.9117 Y9.1225
G01 X14.6259 Y9.1225
G01 X14.6018 Y9.1231
G01 X14.5697 Y9.1250
G01 X14.5391 Y9.1285
G01 X14.5338 Y9.1293
G01 X14.5340 Y9.1301
G01 X14.5073 Y9.1336
G01 X14.4772 Y9.1401
G01 X14.4721 Y9.1414
G01 X14.4723 Y9.1424
G01 X14.4500 Y9.1471
G01 X14.4461 Y9.1482
G01 X14.4168 Y9.1577
G01 X14.3866 Y9.1688
G01 X14.3608 Y9.1800
G01 X14.3390 Y9.1902
G01 X14.1962 Y9.2617
G01 X14.1964 Y9.2621
G01 X14.1748 Y9.2730
G01 X14.1620 Y9.2802
G01 X14.1212 Y9.3059
G01 X14.1091 Y9.3143
G01 X14.1094 Y9.3147
G01 X14.0944 Y9.3261
G01 X14.0621 Y9.2938
G01 X14.0512 Y9.2839
G01 X14.0506 Y9.2846
G01 X14.0139 Y9.2533
G01 X13.9989 Y9.2421
G01 X13.9620 Y9.2177
G01 X13.9542 Y9.2130
G00 Z2.0000
G00 X13.6943 Y9.2656
G01 F60.00
G01 Z-0.1000
G01 F120.00
G01 X13.7173 Y9.2489
G01 X13.7309 Y9.2383
G01 X13.7550 Y9.2171
G01 X13.7676 Y9.2051
G01 X13.8390 Y9.1337
G01 X13.8609 Y9.1102
G01 X13.8606 Y9.1100
G01 X13.8722 Y9.0970
G01 X13.8916 Y9.0716
G01 X13.8911 Y9.0711
G01 X13.9016 Y9.0574
G01 X13.9185 Y9.0301
G01 X13.9271 Y9.0149
G01 X13.9411 Y8.9862
G01 X13.9481 Y8.9704
G01 X13.9544 Y8.9542
G01 X13.9648 Y8.9239
G01 X13.9730 Y8.8929
G01 X13.9768 Y8.8760
G01 X13.9797 Y8.8589
G01 X13.9835 Y8.8314
G01 X13.9965 Y8.8355
G01 X14.0108 Y8.8391
G01 X14.0448 Y8.8458
G01 X14.0594 Y8.8480
G01 X14.0939 Y8.8514
G01 X14.1086 Y8.8521
G01 X14.1433 Y8.8521
G01 X14.1580 Y8.8514
G01 X14.1580 Y8.8508
G01 X14.1925 Y8.8480
G01 X14.2128 Y8.8449
G01 X14.2329 Y8.8407
G01 X14.2508 Y8.8445
G01 X14.2727 Y8.8478
G01 X14.2957 Y8.8505
G01 X14.3219 Y8.8521
G01 X14.3402 Y8.8525
G01 X14.5545 Y8.8525
G01 X14.5718 Y8.8521
G01 X14.5991 Y8.8505
G01 X14.6221 Y8.8478
G01 X14.6220 Y8.8472
G01 X14.6335 Y8.8461
G01 X14.6480 Y8.8438
G01 X14.6479 Y8.8433
G01 X14.6706 Y8.8388
G01 X14.6704 Y8.8379
G01 X14.6921 Y8.8333
G01 X14.6960 Y8.8322
G01 X14.7181 Y8.8251
G01 X14.7427 Y8.8160
G01 X14.7630 Y8.8072
G01 X14.7796 Y8.7994
G01 X14.9225 Y8.7280
G01 X14.9223 Y8.7276
G01 X14.9314 Y8.7233
G01 X14.9533 Y8.7111
G01 X14.9739 Y8.6982
G01 X14.9946 Y8.6840
G01 X14.9998 Y8.6801
G01 X14.9995 Y8.6796
G01 X15.0138 Y8.6690
G01 X15.0329 Y8.6529
G01 X15.0506 Y8.6361
G01 X15.0586 Y8.6280
G01 X15.0584 Y8.6278
G01 X15.0681 Y8.6182
G01 X15.0725 Y8.6133
G01 X15.0721 Y8.6129
G01 X15.0811 Y8.6027
G01 X15.0814 Y8.6029
G01 X15.0902 Y8.5922
G01 X15.1079 Y8.6133
G01 X15.1247 Y8.6310
G01 X15.1328 Y8.6390
G01 X15.1330 Y8.6387
G01 X15.1426 Y8.6485
G01 X15.1475 Y8.6529
G01 X15.1479 Y8.6524
G01 X15.1610 Y8.6644
G01 X15.1806 Y8.6801
G01 X15.2005 Y8.6941
G01 X15.2215 Y8.7078
G01 X15.2271 Y8.7111
G01 X15.2274 Y8.7108
G01 X15.2427 Y8.7198
G01 X15.2580 Y8.7280
G01 X15.4008 Y8.7994
G01 X15.4175 Y8.8072
G01 X15.4378 Y8.8160
G01 X15.4416 Y8.8175
G01 X15.4418 Y8.8170
G01 X15.4634 Y8.8254
G01 X15.4635 Y8.8250
G01 X15.4884 Y8.8334
G01 X15.5098 Y8.8388
G01 X15.5325 Y8.8438
G01 X15.5584 Y8.8478
G01 X15.5855 Y8.8509
G01 X15.6076 Y8.8521
G01 X15.6259 Y8.8525
G01 X15.8402 Y8.8525
G01 X15.8586 Y8.8521
G01 X15.8848 Y8.8505
G01 X15.9078 Y8.8478
G01 X15.9077 Y8.8472
G01 X15.9192 Y8.8461
G01 X15.9297 Y8.8445
G01 X15.9337 Y8.8438
G01 X15.9336 Y8.8433
G01 X15.9553 Y8.8391
G01 X15.9563 Y8.8388
G01 X15.9561 Y8.8379
G01 X15.9778 Y8.8333
G01 X15.9817 Y8.8322
G01 X16.0038 Y8.8251
G01 X16.0284 Y8.8160
G01 X16.0487 Y8.8072
G01 X16.0653 Y8.7994
G01 X16.1598 Y8.7522
G01 X16.1679 Y8.7719
G01 X16.1757 Y8.7886
G01 X16.2472 Y8.9314
G01 X16.2512 Y8.9393
G01 X16.2516 Y8.9391
G01 X16.2620 Y8.9587
G01 X16.2762 Y8.9819
G01 X16.2894 Y9.0010
G01 X16.2898 Y9.0007
G01 X16.3052 Y9.0219
G01 X16.3203 Y9.0395
G01 X16.3381 Y9.0588
G01 X16.4163 Y9.1370
G01 X16.4192 Y9.1399
G01 X16.4196 Y9.1395
G01 X16.4356 Y9.1548
G01 X16.4363 Y9.1555
G01 X16.4366 Y9.1552
G01 X16.4564 Y9.1724
G01 X16.4741 Y9.1857
G01 X16.4750 Y9.1863
G01 X16.4754 Y9.1858
G01 X16.4932 Y9.1989
G01 X16.5164 Y9.2131
G01 X16.5394 Y9.2258
G01 X16.6215 Y9.2669
G01 X16.6039 Y9.2695
G01 X16.6040 Y9.2700
G01 X16.5813 Y9.2744
G01 X16.5814 Y9.2753
G01 X16.5598 Y9.2799
G01 X16.5348 Y9.2878
G01 X16.5092 Y9.2972
G01 X16.5093 Y9.2975
G01 X16.4889 Y9.3061
G01 X16.4723 Y9.3139
G01 X16.3294 Y9.3853
G01 X16.3296 Y9.3856
G01 X16.3141 Y9.3934
G01 X16.2929 Y9.4055
G01 X16.2719 Y9.4191
G01 X16.2520 Y9.4332
G01 X16.2522 Y9.4335
G01 X16.2381 Y9.4442
G01 X16.2189 Y9.4604
G01 X16.2013 Y9.4771
G01 X16.1898 Y9.4890
G01 X16.1773 Y9.4703
G01 X16.1686 Y9.4584
G01 X16.1466 Y9.4316
G01 X16.1367 Y9.4207
G01 X16.1122 Y9.3962
G01 X16.1013 Y9.3863
G01 X16.1008 Y9.3868
G01 X16.0745 Y9.3643
G01 X16.0603 Y9.3538
G01 X16.0338 Y9.3363
G01 X16.0212 Y9.3287
G01 X15.9906 Y9.3124
G01 X15.9773 Y9.3061
G01 X15.9452 Y9.2928
G01 X15.9314 Y9.2878
G01 X15.9312 Y9.2882
G01 X15.8982 Y9.2778
G01 X15.8839 Y9.2742
G01 X15.8499 Y9.2674
G01 X15.8353 Y9.2653
G01 X15.8008 Y9.2619
G01 X15.7861 Y9.2612
G01 X15.7515 Y9.2612
G01 X15.7368 Y9.2619
G01 X15.7368 Y9.2625
G01 X15.7022 Y9.2653
G01 X15.6819 Y9.2683
G01 X15.6537 Y9.2742
G01 X15.6394 Y9.2778
G01 X15.6062 Y9.2878
G01 X15.5923 Y9.2928
G01 X15.5603 Y9.3061
G01 X15.5470 Y9.3124
G01 X15.5164 Y9.3287
G01 X15.5038 Y9.3363
G01 X15.4750 Y9.3555
G01 X15.4631 Y9.3643
G01 X15.4363 Y9.3863
G01 X15.4254 Y9.3962
G01 X15.4009 Y9.4207
G01 X15.3910 Y9.4316
G01 X15.3915 Y9.4321
G01 X15.3769 Y9.4492
G01 X15.3517 Y9.4293
G01 X15.3311 Y9.4151
G01 X15.3105 Y9.4021
G01 X15.3102 Y9.4025
G01 X15.2949 Y9.3934
G01 X15.2796 Y9.3853
G01 X15.1368 Y9.3139
G01 X15.1201 Y9.3061
G01 X15.0998 Y9.2972
G01 X15.0752 Y9.2882
G01 X15.0742 Y9.2878
G01 X15.0741 Y9.2883
G01 X15.0492 Y9.2799
G01 X15.0268 Y9.2742
G01 X15.0011 Y9.2688
G01 X14.9782 Y9.2653
G01 X14.9521 Y9.2624
G01 X14.9290 Y9.2612
G01 X14.9117 Y9.2607
G01 X14.6259 Y9.2607
G01 X14.6076 Y9.2612
G01 X14.5814 Y9.2627
G01 X14.5594 Y9.2653
G01 X14.5584 Y9.2654
G01 X14.5585 Y9.2661
G01 X14.5470 Y9.2671
G01 X14.5365 Y9.2688
G01 X14.5325 Y9.2695
G01 X14.5325 Y9.2700
G01 X14.5108 Y9.2742
G01 X14.5098 Y9.2744
G01 X14.5100 Y9.2753
G01 X14.4884 Y9.2799
G01 X14.4844 Y9.2810
G01 X14.4634 Y9.2878
G01 X14.4416 Y9.2957
G01 X14.4175 Y9.3061
G01 X14.4008 Y9.3139
G01 X14.2580 Y9.3853
G01 X14.2581 Y9.3856
G01 X14.2427 Y9.3934
G01 X14.2298 Y9.4007
G01 X14.2005 Y9.4191
G01 X14.1884 Y9.4276
G01 X14.1886 Y9.4278
G01 X14.1610 Y9.4488
G01 X14.1499 Y9.4584
G01 X14.1247 Y9.4823
G01 X14.1145 Y9.4929
G01 X14.1147 Y9.4931
G01 X14.0918 Y9.5191
G01 X14.0827 Y9.5307
G01 X14.0762 Y9.5398
G01 X14.0613 Y9.5117
G01 X14.0537 Y9.4991
G01 X14.0345 Y9.4703
G01 X14.0257 Y9.4584
G01 X14.0037 Y9.4316
G01 X13.9938 Y9.4207
G01 X13.9693 Y9.3962
G01 X13.9584 Y9.3863
G01 X13.9579 Y9.3868
G01 X13.9316 Y9.3643
G01 X13.9174 Y9.3538
G01 X13.8909 Y9.3363
G01 X13.8783 Y9.3287
G01 X13.8477 Y9.3124
G01 X13.8344 Y9.3061
G01 X13.8024 Y9.2928
G01 X13.7885 Y9.2878
G01 X13.7884 Y9.2882
G01 X13.7553 Y9.2778
G01 X13.7411 Y9.2742
G01 X13.7071 Y9.2674
G01 X13.6943 Y9.2656
G00 Z2.0000
G00 X13.2608 Y10.1701
G01 F60.00
G01 Z-0.1000
G01 F120.00
G01 X13.2413 Y10.1488
G01 X13.2336 Y10.1415
G01 X13.2149 Y10.1249
G01 X13.2064 Y10.1182
G01 X13.1949 Y10.1097
G01 X13.1946 Y10.1100
G01 X13.1862 Y10.1035
G01 X13.1698 Y10.0934
G01 X13.1838 Y10.0787
G01 X13.1934 Y10.0675
G01 X13.2064 Y10.0509
G01 X13.2154 Y10.0380
G01 X13.2260 Y10.0210
G01 X13.2333 Y10.0081
G01 X13.2427 Y9.9892
G01 X13.2486 Y9.9758
G01 X13.2562 Y9.9561
G01 X13.2608 Y9.9419
G01 X13.2608 Y10.1701
G00 Z2.0000
G00 X13.3991 Y10.7641
G01 F60.00
G01 Z-0.1000
G01 F120.00
G01 X13.3991 Y9.7641
G01 X13.3999 Y9.7456
G01 X13.4006 Y9.7381
G01 X13.4042 Y9.7161
G01 X13.4100 Y9.6947
G01 X13.4179 Y9.6738
G01 X13.4277 Y9.6539
G01 X13.4391 Y9.6355
G01 X13.4530 Y9.6173
G01 X13.4682 Y9.6011
G01 X13.4850 Y9.5864
G01 X13.5031 Y9.5734
G01 X13.5224 Y9.5623
G01 X13.5426 Y9.5531
G01 X13.5637 Y9.5460
G01 X13.5841 Y9.5411
G01 X13.6000 Y9.5388
G01 X13.6075 Y9.5380
G01 X13.6297 Y9.5373
G01 X13.6519 Y9.5388
G01 X13.6739 Y9.5424
G01 X13.6882 Y9.5460
G01 X13.7092 Y9.5531
G01 X13.7295 Y9.5623
G01 X13.7362 Y9.5659
G01 X13.7546 Y9.5772
G01 X13.7669 Y9.5864
G01 X13.7836 Y9.6011
G01 X13.7890 Y9.6064
G01 X13.7989 Y9.6173
G01 X13.8124 Y9.6350
G01 X13.8242 Y9.6539
G01 X13.8277 Y9.6605
G01 X13.8340 Y9.6738
G01 X13.8419 Y9.6947
G01 X13.8441 Y9.7019
G01 X13.8490 Y9.7226
G01 X13.8513 Y9.7381
G01 X13.8520 Y9.7456
G01 X13.8528 Y9.7641
G01 X13.8528 Y10.4248
G01 X13.8838 Y10.4868
G01 X13.9032 Y10.5062
G01 X13.9652 Y10.5372
G01 X14.0545 Y10.5372
G01 X14.0730 Y10.5380
G01 X14.0951 Y10.5409
G01 X14.1167 Y10.5460
G01 X14.1378 Y10.5531
G01 X14.1448 Y10.5560
G01 X14.1647 Y10.5659
G01 X14.1831 Y10.5772
G01 X14.1955 Y10.5864
G01 X14.2122 Y10.6011
G01 X14.2175 Y10.6064
G01 X14.2322 Y10.6231
G01 X14.2410 Y10.6350
G01 X14.2527 Y10.6539
G01 X14.2626 Y10.6738
G01 X14.2704 Y10.6947
G01 X14.2726 Y10.7019
G01 X14.2777 Y10.7235
G01 X14.2798 Y10.7381
G01 X14.2813 Y10.7603
G01 X14.2806 Y10.7826
G01 X14.2777 Y10.8046
G01 X14.2762 Y10.8120
G01 X14.2726 Y10.8263
G01 X14.2655 Y10.8474
G01 X14.2563 Y10.8677
G01 X14.2527 Y10.8743
G01 X14.2414 Y10.8927
G01 X14.2322 Y10.9050
G01 X14.2175 Y10.9218
G01 X14.2122 Y10.9271
G01 X14.1955 Y10.9418
G01 X14.1836 Y10.9506
G01 X14.1647 Y10.9623
G01 X14.1448 Y10.9722
G01 X14.1239 Y10.9800
G01 X14.1167 Y10.9822
G01 X14.0951 Y10.9872
G01 X14.0805 Y10.9894
G01 X14.0583 Y10.9909
G01 X13.9117 Y10.9910
G01 X13.8993 Y10.9906
G01 X13.8857 Y10.9894
G01 X13.8772 Y10.9883
G01 X13.8637 Y10.9858
G01 X13.8494 Y10.9822
G01 X13.8341 Y10.9772
G01 X13.8214 Y10.9722
G01 X13.8102 Y10.9670
G01 X13.7640 Y10.9439
G01 X13.7488 Y10.9547
G01 X13.7295 Y10.9659
G01 X13.7092 Y10.9750
G01 X13.6882 Y10.9822
G01 X13.6677 Y10.9871
G01 X13.6519 Y10.9894
G01 X13.6444 Y10.9901
G01 X13.6222 Y10.9909
G01 X13.6075 Y10.9901
G01 X13.5854 Y10.9872
G01 X13.5637 Y10.9822
G01 X13.5426 Y10.9750
G01 X13.5224 Y10.9659
G01 X13.5031 Y10.9547
G01 X13.4973 Y10.9509
G01 X13.4850 Y10.9418
G01 X13.4682 Y10.9271
G01 X13.4629 Y10.9218
G01 X13.4482 Y10.9050
G01 X13.4353 Y10.8869
G01 X13.4242 Y10.8677
G01 X13.4150 Y10.8474
G01 X13.4078 Y10.8263
G01 X13.4029 Y10.8056
G01 X13.4006 Y10.7901
G01 X13.3999 Y10.7826
G01 X13.3991 Y10.7641
G00 Z2.0000
G00 X14.2562 Y10.5498
G01 F60.00
G01 Z-0.1000
G01 F120.00
G01 X14.2562 Y10.4784
G01 X14.2566 Y10.4661
G01 X14.2578 Y10.4524
G01 X14.2599 Y10.4378
G01 X14.2634 Y10.4221
G01 X14.2672 Y10.4089
G01 X14.2721 Y10.3951
G01 X14.2802 Y10.3769
G01 X14.3516 Y10.2341
G01 X14.3589 Y10.2206
G01 X14.3673 Y10.2075
G01 X14.3730 Y10.1995
G01 X14.3807 Y10.1898
G01 X14.3915 Y10.1777
G01 X14.4013 Y10.1683
G01 X14.4088 Y10.1617
G01 X14.4184 Y10.1540
G01 X14.4305 Y10.1456
G01 X14.4389 Y10.1404
G01 X14.4530 Y10.1326
G01 X14.5959 Y10.0612
G01 X14.6128 Y10.0536
G01 X14.6279 Y10.0482
G01 X14.6405 Y10.0445
G01 X14.6556 Y10.0411
G01 X14.6714 Y10.0388
G01 X14.6851 Y10.0376
G01 X14.6974 Y10.0372
G01 X14.8581 Y10.0372
G01 X14.8853 Y10.0236
G01 X14.8901 Y10.0139
G01 X14.8854 Y10.0046
G01 X14.8581 Y9.9910
G01 X14.6795 Y9.9910
G01 X14.5845 Y10.0384
G01 X14.5677 Y10.0460
G01 X14.5466 Y10.0532
G01 X14.5393 Y10.0552
G01 X14.5190 Y10.0595
G01 X14.5029 Y10.0615
G01 X14.4954 Y10.0620
G01 X14.4790 Y10.0623
G01 X14.4585 Y10.0610
G01 X14.4365 Y10.0575
G01 X14.4291 Y10.0558
G01 X14.4149 Y10.0519
G01 X14.3941 Y10.0441
G01 X14.3872 Y10.0411
G01 X14.3682 Y10.0311
G01 X14.3551 Y10.0228
G01 X14.3489 Y10.0184
G01 X14.3316 Y10.0044
G01 X14.3158 Y9.9887
G01 X14.3062 Y9.9775
G01 X14.2932 Y9.9595
G01 X14.2819 Y9.9403
G01 X14.2726 Y9.9201
G01 X14.2699 Y9.9130
G01 X14.2634 Y9.8918
G01 X14.2591 Y9.8714
G01 X14.2571 Y9.8554
G01 X14.2566 Y9.8478
G01 X14.2563 Y9.8314
G01 X14.2576 Y9.8109
G01 X14.2586 Y9.8034
G01 X14.2611 Y9.7889
G01 X14.2667 Y9.7674
G01 X14.2745 Y9.7465
G01 X14.2775 Y9.7396
G01 X14.2875 Y9.7206
G01 X14.2958 Y9.7075
G01 X14.3002 Y9.7014
G01 X14.3142 Y9.6841
G01 X14.3299 Y9.6683
G01 X14.3411 Y9.6587
G01 X14.3591 Y9.6456
G01 X14.3655 Y9.6416
G01 X14.3816 Y9.6326
G01 X14.5279 Y9.5596
G01 X14.5426 Y9.5531
G01 X14.5565 Y9.5482
G01 X14.5691 Y9.5445
G01 X14.5780 Y9.5424
G01 X14.5900 Y9.5401
G01 X14.6000 Y9.5388
G01 X14.6136 Y9.5376
G01 X14.6259 Y9.5372
G01 X14.9117 Y9.5372
G01 X14.9240 Y9.5376
G01 X14.9376 Y9.5388
G01 X14.9522 Y9.5409
G01 X14.9679 Y9.5444
G01 X14.9811 Y9.5482
G01 X14.9892 Y9.5509
G01 X15.0019 Y9.5560
G01 X15.0131 Y9.5612
G01 X15.1560 Y9.6326
G01 X15.1694 Y9.6399
G01 X15.1825 Y9.6483
G01 X15.1965 Y9.6587
G01 X15.2123 Y9.6725
G01 X15.2234 Y9.6841
G01 X15.2314 Y9.6935
G01 X15.2418 Y9.7075
G01 X15.2497 Y9.7199
G01 X15.2574 Y9.7341
G01 X15.3289 Y9.8769
G01 X15.3369 Y9.8951
G01 X15.3441 Y9.9161
G01 X15.3476 Y9.9304
G01 X15.3499 Y9.9425
G01 X15.3520 Y9.9599
G01 X15.3528 Y9.9784
G01 X15.3528 Y10.0498
G01 X15.3524 Y10.0621
G01 X15.3513 Y10.0758
G01 X15.3501 Y10.0843
G01 X15.3476 Y10.0977
G01 X15.3441 Y10.1120
G01 X15.3369 Y10.1331
G01 X15.3289 Y10.1513
G01 X15.2574 Y10.2941
G01 X15.2484 Y10.3103
G01 X15.2374 Y10.3268
G01 X15.2283 Y10.3384
G01 X15.2175 Y10.3505
G01 X15.2059 Y10.3615
G01 X15.1906 Y10.3741
G01 X15.1785 Y10.3826
G01 X15.1635 Y10.3915
G01 X15.0131 Y10.4670
G01 X15.0021 Y10.4721
G01 X15.0186 Y10.4687
G01 X15.0347 Y10.4667
G01 X15.0422 Y10.4662
G01 X15.0586 Y10.4658
G01 X15.0791 Y10.4672
G01 X15.1011 Y10.4707
G01 X15.1085 Y10.4724
G01 X15.1298 Y10.4787
G01 X15.1504 Y10.4871
G01 X15.1694 Y10.4971
G01 X15.1825 Y10.5054
G01 X15.1887 Y10.5098
G01 X15.2059 Y10.5238
G01 X15.2166 Y10.5340
G01 X15.2218 Y10.5395
G01 X15.2360 Y10.5566
G01 X15.2444 Y10.5687
G01 X15.2557 Y10.5879
G01 X15.2650 Y10.6081
G01 X15.2677 Y10.6151
G01 X15.2741 Y10.6358
G01 X15.2785 Y10.6567
G01 X15.2805 Y10.6728
G01 X15.2810 Y10.6803
G01 X15.2813 Y10.6967
G01 X15.2800 Y10.7173
G01 X15.2765 Y10.7393
G01 X15.2748 Y10.7466
G01 X15.2685 Y10.7679
G01 X15.2601 Y10.7886
G01 X15.2501 Y10.8076
G01 X15.2418 Y10.8207
G01 X15.2283 Y10.8384
G01 X15.2132 Y10.8547
G01 X15.2077 Y10.8599
G01 X15.1965 Y10.8695
G01 X15.1785 Y10.8826
G01 X15.1721 Y10.8866
G01 X15.1560 Y10.8956
G01 X15.0131 Y10.9670
G01 X15.0019 Y10.9722
G01 X14.9892 Y10.9772
G01 X14.9811 Y10.9800
G01 X14.9685 Y10.9837
G01 X14.9535 Y10.9871
G01 X14.9315 Y10.9900
G01 X14.9117 Y10.9910
G01 X14.6974 Y10.9910
G01 X14.6789 Y10.9901
G01 X14.6629 Y10.9883
G01 X14.6494 Y10.9858
G01 X14.6411 Y10.9838
G01 X14.6279 Y10.9800
G01 X14.6128 Y10.9745
G01 X14.5959 Y10.9670
G01 X14.4530 Y10.8956
G01 X14.4396 Y10.8882
G01 X14.4265 Y10.8799
G01 X14.4184 Y10.8741
G01 X14.4088 Y10.8665
G01 X14.3967 Y10.8556
G01 X14.3873 Y10.8459
G01 X14.3807 Y10.8384
G01 X14.3730 Y10.8287
G01 X14.3646 Y10.8167
G01 X14.3594 Y10.8082
G01 X14.3534 Y10.7974
G01 X14.2802 Y10.6513
G01 X14.2750 Y10.6401
G01 X14.2699 Y10.6273
G01 X14.2672 Y10.6192
G01 X14.2635 Y10.6067
G01 X14.2614 Y10.5977
G01 X14.2591 Y10.5857
G01 X14.2578 Y10.5758
G01 X14.2566 Y10.5621
G01 X14.2562 Y10.5498
G00 Z2.0000
G00 X14.9646 Y10.4845
G01 F60.00
G01 Z-0.1000
G01 F120.00
G01 X14.9530 Y10.4897
G01 X14.8581 Y10.5372
G01 X14.7509 Y10.5372
G01 X14.7236 Y10.5236
G01 X14.7189 Y10.5142
G01 X14.7237 Y10.5046
G01 X14.7509 Y10.4910
G01 X14.9154 Y10.4909
G01 X14.9240 Y10.4906
G01 X14.9376 Y10.4894
G01 X14.9535 Y10.4871
G01 X14.9646 Y10.4845
G00 Z2.0000
G00 X15.4037 Y10.3107
G01 F60.00
G01 Z-0.1000
G01 F120.00
G01 X15.4037 Y10.5863
G01 X15.3990 Y10.5721
G01 X15.3915 Y10.5524
G01 X15.3856 Y10.5389
G01 X15.3761 Y10.5201
G01 X15.3689 Y10.5072
G01 X15.3577 Y10.4894
G01 X15.3492 Y10.4773
G01 X15.3363 Y10.4606
